**harm	**harte	**kern	**silbe	**kern	**silbe	**kern	**silbe	**rhyme	**timestamp	**phrase	**leadinstrument
*M4/4	*M4/4	*ICvox	*	*ICvox	*	*ICvox	*	*	*	*	*
*	*	*VRlead	*	*VRbacking*VRharmonize	*	*VRbacking	*	*	*	*	*
*	*	*Hstimme	*	*Nstimme	*	*Nstimme	*	*	*	*	*
*b-:	*b-:	*b-:	*	*b-:	*	*b-:	*	*	*	*	*
*	*	*M4/4	*	*M4/4	*	*M4/4	*	*	*	*	*
*	*	*clefF4	*	*clefG2	*	*clefF4	*	*	*	*	*
1r;	N	r;	.	r;	.	r;	.	.	0	.	r
=1	=1	=1	=1	=1	=1	=1	=1	=1	=1	=1	=1
*>Letter>A	*>Letter>A	*>Letter>A	*>Letter>A	*>Letter>A	*>Letter>A	*>Letter>A	*>Letter>A	*>Letter>A	*>Letter>A	*>Letter>A	*>Letter>A
*>Label>Intro	*>Label>Intro	*>Label>Intro	*>Label>Intro	*>Label>Intro	*>Label>Intro	*>Label>Intro	*>Label>Intro	*>Label>Intro	*>Label>Intro	*>Label>Intro	*>Label>Intro
1r	N	1r	.	1r	.	1r	.	.	0.209	newline	synthesizer
=2	=2	=2	=2	=2	=2	=2	=2	=2	=2	=2	=2
2-VII	A-:1	4r	.	8.d-	Ooh!	1r	.	.	2.188	.	synthesizer
.	.	.	.	16e-	_	.	.	.	.	.	.
.	.	8r	.	4r	.	.	.	.	.	.	.
.	.	[8C-	Yeah!	.	.	.	.	.	.	.	.
2i	B-:1	8C-]	_	2r	.	.	.	.	3.177	.	.
.	.	8r	.	.	.	.	.	.	.	.	.
.	.	4r	.	.	.	.	.	.	.	.	.
=3	=3	=3	=3	=3	=3	=3	=3	=3	=3	=3	=3
2-VI	G-:1	4r	.	1r	.	1r	.	.	4.167	.	synthesizer
.	.	8r	.	.	.	.	.	.	.	.	.
.	.	16BB-	Can	.	.	.	.	.	.	.	.
.	.	16BB-	you	.	.	.	.	.	.	.	.
2-VII	A-:1	16D	feel	.	.	.	.	.	5.156	.	.
.	.	16D	it,	.	.	.	.	.	.	.	.
.	.	16D	ba-	.	.	.	.	.	.	.	.
.	.	16D	-by?	.	.	.	.	.	.	.	.
.	.	4r	.	.	.	.	.	.	.	.	.
=4	=4	=4	=4	=4	=4	=4	=4	=4	=4	=4	=4
2-VII	A-:1	1r	.	8.d-	Ooh!	1r	.	.	6.145	.	synthesizer
.	.	.	.	16e-	_	.	.	.	.	.	.
.	.	.	.	4r	.	.	.	.	.	.	.
2i	B-:1	.	.	2r	.	.	.	.	7.135	.	.
=5	=5	=5	=5	=5	=5	=5	=5	=5	=5	=5	=5
2-VI	G-:1	4r	.	1r	.	1r	.	.	8.124	.	synthesizer
.	.	8r	.	.	.	.	.	.	.	.	.
.	.	8D	I	.	.	.	.	.	.	.	.
2-VII	A-:1	8C	can,	.	.	.	.	.	9.114	.	.
.	.	8AA-	too.	.	.	.	.	.	.	.	.
.	.	4r	.	.	.	.	.	.	.	.	.
=6	=6	=6	=6	=6	=6	=6	=6	=6	=6	=6	=6
2-VII	A-:1	1r	.	8.d-	Ooh!	8r	.	.	10.103	newline	synthesizer
.	.	.	.	.	.	[8AA-	Bom,	.	.	.	.
.	.	.	.	16e-	_	.	.	.	.	.	.
.	.	.	.	4r	.	16AA-]	_	.	.	.	.
.	.	.	.	.	.	8.AA-	bom,	.	.	.	.
2i	B-:1	.	.	2r	.	8.BB-	bom,	.	11.088	.	.
.	.	.	.	.	.	[16BB-	bom,	.	.	.	.
.	.	.	.	.	.	16BB-]	_	.	.	.	.
.	.	.	.	.	.	8.BB-	bom,	.	.	.	.
=7	=7	=7	=7	=7	=7	=7	=7	=7	=7	=7	=7
2-VI	G-:1	1r	.	1r	.	8r	.	.	12.073	.	synthesizer
.	.	.	.	.	.	[8GG-	bom,	.	.	.	.
.	.	.	.	.	.	16GG-]	_	.	.	.	.
.	.	.	.	.	.	8.GG-	bom,	.	.	.	.
2-VII	A-:1	.	.	.	.	8.AA-	bom,	.	13.058	.	.
.	.	.	.	.	.	[16AA-	bom,	.	.	.	.
.	.	.	.	.	.	16AA-]	_	.	.	.	.
.	.	.	.	.	.	8.AA-	bom.	.	.	.	.
=8	=8	=8	=8	=8	=8	=8	=8	=8	=8	=8	=8
2-VII	A-:1	1r	.	8.d-	Ooh!	8r	.	.	14.044	.	synthesizer
.	.	.	.	.	.	[8AA-	Bom,	.	.	.	.
.	.	.	.	16e-	_	.	.	.	.	.	.
.	.	.	.	4r	.	16AA-]	_	.	.	.	.
.	.	.	.	.	.	8.AA-	bom,	.	.	.	.
2i	B-:1	.	.	2r	.	8.BB-	bom,	.	15.029	.	.
.	.	.	.	.	.	[16BB-	bom,	.	.	.	.
.	.	.	.	.	.	16BB-]	_	.	.	.	.
.	.	.	.	.	.	8.BB-	bom,	.	.	.	.
=9	=9	=9	=9	=9	=9	=9	=9	=9	=9	=9	=9
2-VI	G-:1	1r	.	1r	.	8r	.	.	16.014	.	synthesizer
.	.	.	.	.	.	[8GG-	bom,	.	.	.	.
.	.	.	.	.	.	16GG-]	_	.	.	.	.
.	.	.	.	.	.	8.GG-	bom,	.	.	.	.
2-VII	A-:1	.	.	.	.	8.AA-	bom,	.	16.999	.	.
.	.	.	.	.	.	[16AA-	bom,	.	.	.	.
.	.	.	.	.	.	16AA-]	_	.	.	.	.
.	.	.	.	.	.	8.AA-	bom.	.	.	.	.
=10	=10	=10	=10	=10	=10	=10	=10	=10	=10	=10	=10
*>Letter>B	*>Letter>B	*>Letter>B	*>Letter>B	*>Letter>B	*>Letter>B	*>Letter>B	*>Letter>B	*>Letter>B	*>Letter>B	*>Letter>B	*>Letter>B
*>Label>Instrumental	*>Label>Instrumental	*>Label>Instrumental	*>Label>Instrumental	*>Label>Instrumental	*>Label>Instrumental	*>Label>Instrumental	*>Label>Instrumental	*>Label>Instrumental	*>Label>Instrumental	*>Label>Instrumental	*>Label>Instrumental
2-VII	A-:maj	2r	.	8.d-	Ooh!	8r	.	.	17.984	newline	synthesizer
.	.	.	.	.	.	[8AA-	Bom,	.	.	.	.
.	.	.	.	16e-	_	.	.	.	.	.	.
.	.	.	.	4r	.	16AA-]	_	.	.	.	.
.	.	.	.	.	.	8.AA-	bom,	.	.	.	.
2i7	B-:min7	16A-	Come	2r	.	8.BB-	bom,	.	18.974	.	.
.	.	8.C	on,	.	.	.	.	.	.	.	.
.	.	.	.	.	.	[16BB-	bom,	.	.	.	.
.	.	16F	swing	.	.	16BB-]	_	.	.	.	.
.	.	16F	it.	.	.	8.BB-	bom,	.	.	.	.
.	.	8r	.	.	.	.	.	.	.	.	.
=11	=11	=11	=11	=11	=11	=11	=11	=11	=11	=11	=11
2-VI	G-:maj	4r	.	2r	.	8r	.	.	19.964	.	synthesizer
.	.	.	.	.	.	[8GG-	bom,	.	.	.	.
.	.	8r	.	.	.	16GG-]	_	.	.	.	.
.	.	.	.	.	.	8.GG-	bom,	.	.	.	.
.	.	8A-	C-	.	.	.	.	.	.	.	.
2-VII	A-:maj	16A-	-come	4r	.	8.AA-	bom,	.	20.954	.	.
.	.	8.C	on,	.	.	.	.	.	.	.	.
.	.	.	.	.	.	[16AA-	bom,	.	.	.	.
.	.	8F	swing	8r	.	16AA-]	_	.	.	.	.
.	.	.	.	.	.	8.AA-	bom.	.	.	.	.
.	.	16F	it.	8d-	Ooh,	.	.	.	.	.	.
.	.	16r	.	.	.	.	.	.	.	.	.
=12	=12	=12	=12	=12	=12	=12	=12	=12	=12	=12	=12
2-VII	A-:maj	2r	.	8.d-	Ooh!	8r	.	.	21.944	.	synthesizer
.	.	.	.	.	.	[8AA-	Bom,	.	.	.	.
.	.	.	.	16e-	_	.	.	.	.	.	.
.	.	.	.	4r	.	16AA-]	_	.	.	.	.
.	.	.	.	.	.	8.AA-	bom,	.	.	.	.
2i7	B-:min7	16A-	Come	2r	.	8.BB-	bom,	.	22.933	.	.
.	.	8.C	on,	.	.	.	.	.	.	.	.
.	.	.	.	.	.	[16BB-	bom,	.	.	.	.
.	.	16F	swing	.	.	16BB-]	_	.	.	.	.
.	.	16F	it.	.	.	8.BB-	bom,	.	.	.	.
.	.	8r	.	.	.	.	.	.	.	.	.
=13	=13	=13	=13	=13	=13	=13	=13	=13	=13	=13	=13
2-VI	G-:maj	4r	.	1r	.	8r	.	.	23.923	.	synthesizer
.	.	.	.	.	.	[8GG-	bom,	.	.	.	.
.	.	8r	.	.	.	16GG-]	_	.	.	.	.
.	.	.	.	.	.	8.GG-	bom,	.	.	.	.
.	.	8A-	C-	.	.	.	.	.	.	.	.
2-VII	A-:maj	16A-	-come	.	.	8.AA-	bom,	.	24.913	.	.
.	.	8.C	on,	.	.	.	.	.	.	.	.
.	.	.	.	.	.	[16AA-	bom,	.	.	.	.
.	.	16F	swing	.	.	16AA-]	_	.	.	.	.
.	.	16F	it.	.	.	8.AA-	bom.	.	.	.	.
.	.	8r	.	.	.	.	.	.	.	.	.
=14	=14	=14	=14	=14	=14	=14	=14	=14	=14	=14	=14
2-VII	A-:maj	8A-	One,	8.d-	Ooh!	8r	.	.	25.903	newline	synthesizer
.	.	8r	.	.	.	[8AA-	Bom,	.	.	.	.
.	.	.	.	16e-	_	.	.	.	.	.	.
.	.	4r	.	4r	.	16AA-]	_	.	.	.	.
.	.	.	.	.	.	8.AA-	bom,	.	.	.	.
2i7	B-:min7	2r	.	2r	.	8.BB-	bom,	.	26.885	.	.
.	.	.	.	.	.	[16BB-	bom,	.	.	.	.
.	.	.	.	.	.	16BB-]	_	.	.	.	.
.	.	.	.	.	.	8.BB-	bom,	.	.	.	.
=15	=15	=15	=15	=15	=15	=15	=15	=15	=15	=15	=15
2-VI	G-:maj	8A-	two,	2r	.	8r	.	.	27.868	.	synthesizer
.	.	8r	.	.	.	[8GG-	bom,	.	.	.	.
.	.	4r	.	.	.	16GG-]	_	.	.	.	.
.	.	.	.	.	.	8.GG-	bom,	.	.	.	.
2-VII	A-:maj	2r	.	4r	.	8.AA-	bom,	.	28.85	.	.
.	.	.	.	.	.	[16AA-	bom,	.	.	.	.
.	.	.	.	8r	.	16AA-]	_	.	.	.	.
.	.	.	.	.	.	8.AA-	bom.	.	.	.	.
.	.	.	.	8d-	Ooh,	.	.	.	.	.	.
=16	=16	=16	=16	=16	=16	=16	=16	=16	=16	=16	=16
2-VII	A-:maj	8A-	three,	8.d-	Ooh!	8r	.	.	29.832	.	synthesizer
.	.	8r	.	.	.	[8AA-	Bom,	.	.	.	.
.	.	.	.	16e-	_	.	.	.	.	.	.
.	.	4r	.	4r	.	16AA-]	_	.	.	.	.
.	.	.	.	.	.	8.AA-	bom,	.	.	.	.
2i7	B-:min7	2r	.	2r	.	8.BB-	bom,	.	30.815	.	.
.	.	.	.	.	.	[16BB-	bom,	.	.	.	.
.	.	.	.	.	.	16BB-]	_	.	.	.	.
.	.	.	.	.	.	8.BB-	bom,	.	.	.	.
=17	=17	=17	=17	=17	=17	=17	=17	=17	=17	=17	=17
2-VI	G-:maj	8D-	now	2r	.	8r	.	.	31.797	.	synthesizer
.	.	16D-	we	.	.	[8GG-	bom,	.	.	.	.
.	.	[16D-	come	.	.	.	.	.	.	.	.
.	.	8D-]	_	.	.	16GG-]	_	.	.	.	.
.	.	.	.	.	.	8.GG-	bom,	.	.	.	.
.	.	16D-	to	.	.	.	.	.	.	.	.
.	.	16D-	the	.	.	.	.	.	.	.	.
2-VII	A-:maj	16AA-	pay-	8r	.	8.AA-	bom,	.	32.779	.	.
.	.	8.AA-	-off.	.	.	.	.	.	.	.	.
.	.	.	.	8a-	It's	.	.	.	.	.	.
.	.	.	.	.	.	[16AA-	bom,	.	.	.	.
.	.	4r	.	8b-	such	16AA-]	_	.	.	.	.
.	.	.	.	.	.	8.AA-	bom.	.	.	.	.
.	.	.	.	8dd-	a	.	.	.	.	.	.
=18	=18	=18	=18	=18	=18	=18	=18	=18	=18	=18	=18
*>Letter>B	*>Letter>B	*>Letter>B	*>Letter>B	*>Letter>B	*>Letter>B	*>Letter>B	*>Letter>B	*>Letter>B	*>Letter>B	*>Letter>B	*>Letter>B
*>Label>Chorus	*>Label>Chorus	*>Label>Chorus	*>Label>Chorus	*>Label>Chorus	*>Label>Chorus	*>Label>Chorus	*>Label>Chorus	*>Label>Chorus	*>Label>Chorus	*>Label>Chorus	*>Label>Chorus
2-VII	A-:maj	1r	.	8r	.	8r	.	.	33.762	newline	voice
.	.	.	.	8ff	good	[8AA-	Bom,	.	.	.	.
.	.	.	.	8r	.	16AA-]	_	.	.	.	.
.	.	.	.	.	.	8.AA-	bom,	.	.	.	.
.	.	.	.	8b-	vi-	.	.	.	.	.	.
2i7	B-:min7	.	.	8b-	-bra-	8.BB-	bom,	(A	34.746	.	.
.	.	.	.	8b-	-tion!	.	.	a)	.	.	.
.	.	.	.	.	.	[16BB-	bom,	.	.	.	.
.	.	.	.	8dd-	_	16BB-]	_	.	.	.	.
.	.	.	.	.	.	8.BB-	bom,	.	.	.	.
.	.	.	.	8r	.	.	.	.	.	.	.
=19	=19	=19	=19	=19	=19	=19	=19	=19	=19	=19	=19
2-VI	G-:maj	1r	.	2r	.	8r	.	.	35.731	.	voice
.	.	.	.	.	.	[8GG-	bom,	.	.	.	.
.	.	.	.	.	.	16GG-]	_	.	.	.	.
.	.	.	.	.	.	8.GG-	bom,	.	.	.	.
2-VII	A-:maj	.	.	8r	.	8.AA-	bom,	.	36.716	.	.
.	.	.	.	8a-	It's	.	.	.	.	.	.
.	.	.	.	.	.	[16AA-	bom,	.	.	.	.
.	.	.	.	8b-	such	16AA-]	_	.	.	.	.
.	.	.	.	.	.	8.AA-	bom.	.	.	.	.
.	.	.	.	8dd-	a	.	.	.	.	.	.
=20	=20	=20	=20	=20	=20	=20	=20	=20	=20	=20	=20
2-VII	A-:maj	1r	.	8r	.	8r	.	.	37.7	.	voice
.	.	.	.	[8ee	sweet	[8AA-	Bom,	.	.	.	.
.	.	.	.	8ee]	_	16AA-]	_	.	.	.	.
.	.	.	.	.	.	8.AA-	bom,	.	.	.	.
.	.	.	.	[8ee-	_	.	.	.	.	.	.
2i7	B-:min7	.	.	6ee-]	_	8.BB-	bom,	.	38.685	.	.
.	.	.	.	6dd-	sen-	.	.	.	.	.	.
.	.	.	.	.	.	[16BB-	bom,	.	.	.	.
.	.	.	.	.	.	16BB-]	_	.	.	.	.
.	.	.	.	.	.	8.BB-	bom,	.	.	.	.
.	.	.	.	6b-	-sa-	.	.	(A	.	.	.
=21	=21	=21	=21	=21	=21	=21	=21	=21	=21	=21	=21
2-VI	G-:maj	1r	.	16b-	-tion!	8r	.	a)	39.67	.	voice
.	.	.	.	16a-	_	.	.	.	.	.	.
.	.	.	.	16b-	_	[8GG-	bom,	.	.	.	.
.	.	.	.	[16dd-	_	.	.	.	.	.	.
.	.	.	.	8dd-]	_	16GG-]	_	.	.	.	.
.	.	.	.	.	.	8.GG-	bom,	.	.	.	.
.	.	.	.	8ee-	_	.	.	.	.	.	.
2-VII	A-:maj	.	.	8r	.	8.AA-	bom,	.	40.654	.	.
.	.	.	.	8a-	It's	.	.	.	.	.	.
.	.	.	.	.	.	[16AA-	bom,	.	.	.	.
.	.	.	.	8b-	such	16AA-]	_	.	.	.	.
.	.	.	.	.	.	8.AA-	bom.	.	.	.	.
.	.	.	.	8dd-	a	.	.	.	.	.	.
=22	=22	=22	=22	=22	=22	=22	=22	=22	=22	=22	=22
2-VII	A-:maj	1r	.	8r	.	8r	.	.	41.639	newline	voice
.	.	.	.	8ff	good	[8AA-	Bom,	.	.	.	.
.	.	.	.	8r	.	16AA-]	_	.	.	.	.
.	.	.	.	.	.	8.AA-	bom,	.	.	.	.
.	.	.	.	8b-	vi-	.	.	.	.	.	.
2i7	B-:min7	.	.	8b-	-bra-	8.BB-	bom,	(A	42.628	.	.
.	.	.	.	8b-	-tion!	.	.	a)	.	.	.
.	.	.	.	.	.	[16BB-	bom,	.	.	.	.
.	.	.	.	8dd-	_	16BB-]	_	.	.	.	.
.	.	.	.	.	.	8.BB-	bom,	.	.	.	.
.	.	.	.	8r	.	.	.	.	.	.	.
=23	=23	=23	=23	=23	=23	=23	=23	=23	=23	=23	=23
2-VI	G-:maj	1r	.	2r	.	8r	.	.	43.617	.	voice
.	.	.	.	.	.	[8GG-	bom,	.	.	.	.
.	.	.	.	.	.	16GG-]	_	.	.	.	.
.	.	.	.	.	.	8.GG-	bom,	.	.	.	.
2-VII	A-:maj	.	.	8r	.	8.AA-	bom,	.	44.606	.	.
.	.	.	.	8a-	It's	.	.	.	.	.	.
.	.	.	.	.	.	[16AA-	bom,	.	.	.	.
.	.	.	.	8b-	such	16AA-]	_	.	.	.	.
.	.	.	.	.	.	8.AA-	bom.	.	.	.	.
.	.	.	.	8dd-	a	.	.	.	.	.	.
=24	=24	=24	=24	=24	=24	=24	=24	=24	=24	=24	=24
2-VII	A-:maj	1r	.	8r	.	8r	.	.	45.595	.	voice
.	.	.	.	[8ee	sweet	[8AA-	Bom,	.	.	.	.
.	.	.	.	8ee]	_	16AA-]	_	.	.	.	.
.	.	.	.	.	.	8.AA-	bom,	.	.	.	.
.	.	.	.	[8ee-	_	.	.	.	.	.	.
2i7	B-:min7	.	.	6ee-]	_	8.BB-	bom,	.	46.584	.	.
.	.	.	.	6dd-	sen-	.	.	.	.	.	.
.	.	.	.	.	.	[16BB-	bom,	.	.	.	.
.	.	.	.	.	.	16BB-]	_	.	.	.	.
.	.	.	.	.	.	8.BB-	bom,	.	.	.	.
.	.	.	.	6b-	-sa-	.	.	(A	.	.	.
=25	=25	=25	=25	=25	=25	=25	=25	=25	=25	=25	=25
2-VI	G-:maj	1r	.	16b-	-tion!	8r	.	a)	47.573	.	voice
.	.	.	.	16a-	_	.	.	.	.	.	.
.	.	.	.	16b-	_	[8GG-	bom,	.	.	.	.
.	.	.	.	[16dd-	_	.	.	.	.	.	.
.	.	.	.	8dd-]	_	16GG-]	_	.	.	.	.
.	.	.	.	.	.	8.GG-	bom,	.	.	.	.
.	.	.	.	8ee-	_	.	.	.	.	.	.
2-VII	A-:maj	.	.	2r	.	8.AA-	bom,	.	48.562	.	.
.	.	.	.	.	.	[16AA-	bom,	.	.	.	.
.	.	.	.	.	.	16AA-]	_	.	.	.	.
.	.	.	.	.	.	8.AA-	bom.	.	.	.	.
=26	=26	=26	=26	=26	=26	=26	=26	=26	=26	=26	=26
*>Letter>A	*>Letter>A	*>Letter>A	*>Letter>A	*>Letter>A	*>Letter>A	*>Letter>A	*>Letter>A	*>Letter>A	*>Letter>A	*>Letter>A	*>Letter>A
*>Label>Verse	*>Label>Verse	*>Label>Verse	*>Label>Verse	*>Label>Verse	*>Label>Verse	*>Label>Verse	*>Label>Verse	*>Label>Verse	*>Label>Verse	*>Label>Verse	*>Label>Verse
2-VII	A-:1	8g-	Yo!	8.d-	Ooh!	1r	.	.	49.551	newline	voice
.	.	8r	.	.	.	.	.	.	.	.	.
.	.	.	.	16e-	_	.	.	.	.	.	.
.	.	8r	.	4r	.	.	.	.	.	.	.
.	.	16e-	It's	.	.	.	.	.	.	.	.
.	.	16d-	a-	.	.	.	.	.	.	.	.
2i	B-:1	16e-	-bout	2r	.	.	.	.	50.537	.	.
.	.	8e-	that	.	.	.	.	.	.	.	.
.	.	[16e-	time,	.	.	.	.	A	.	.	.
.	.	8e-]	_	.	.	.	.	.	.	.	.
.	.	16r	.	.	.	.	.	.	.	.	.
.	.	16d-	to	.	.	.	.	.	.	.	.
=27	=27	=27	=27	=27	=27	=27	=27	=27	=27	=27	=27
2-VI	G-:1	16g-	bring	1r	.	1r	.	.	51.524	.	voice
.	.	8r	.	.	.	.	.	.	.	.	.
.	.	16e-	forth	.	.	.	.	.	.	.	.
.	.	8.r	.	.	.	.	.	.	.	.	.
.	.	16f	the	.	.	.	.	.	.	.	.
2-VII	A-:1	16d-	rhy-	.	.	.	.	.	52.511	.	.
.	.	16B-	-thm	.	.	.	.	.	.	.	.
.	.	16d-	and	.	.	.	.	.	.	.	.
.	.	16e-	the	.	.	.	.	.	.	.	.
.	.	8e-	rhyme!	.	.	.	.	A	.	.	.
.	.	8r	.	.	.	.	.	.	.	.	.
=28	=28	=28	=28	=28	=28	=28	=28	=28	=28	=28	=28
2-VII	A-:1	16r	.	8.d-	Ooh!	1r	.	.	53.497	.	voice
.	.	8e-	I'm'ma	.	.	.	.	.	.	.	.
.	.	16c	_	16e-	_	.	.	.	.	.	.
.	.	8g-	get	4r	.	.	.	.	.	.	.
.	.	8f	mine,	.	.	.	.	A	.	.	.
2i	B-:1	16r	.	2r	.	.	.	.	54.484	.	.
.	.	16d-	so	.	.	.	.	.	.	.	.
.	.	8e-	get	.	.	.	.	.	.	.	.
.	.	8e-	yours!	.	.	.	.	B	.	.	.
.	.	8r	.	.	.	.	.	.	.	.	.
=29	=29	=29	=29	=29	=29	=29	=29	=29	=29	=29	=29
2-VI	G-:1	16r	.	1r	.	1r	.	.	55.471	.	voice
.	.	16e-	I	.	.	.	.	.	.	.	.
.	.	16e-	wan-	.	.	.	.	.	.	.	.
.	.	16c	-na	.	.	.	.	.	.	.	.
.	.	8f	see	.	.	.	.	.	.	.	.
.	.	8f	sweat	.	.	.	.	.	.	.	.
2-VII	A-:1	16d-	co-	.	.	.	.	.	56.457	.	.
.	.	16c	-min'	.	.	.	.	.	.	.	.
.	.	16B-	out	.	.	.	.	.	.	.	.
.	.	16d-	your	.	.	.	.	.	.	.	.
.	.	8e-	pores!	.	.	.	.	B	.	.	.
.	.	8r	.	.	.	.	.	.	.	.	.
=30	=30	=30	=30	=30	=30	=30	=30	=30	=30	=30	=30
2-VII	A-:1	8f	On	8.d-	Ooh!	1r	.	.	57.444	newline	voice
.	.	16f	the	.	.	.	.	.	.	.	.
.	.	[16f	house	16e-	_	.	.	.	.	.	.
.	.	16f]	_	4r	.	.	.	.	.	.	.
.	.	8d-	tip	.	.	.	.	C	.	.	.
.	.	16B-	is	.	.	.	.	.	.	.	.
2i	B-:1	16d-	how	2r	.	.	.	.	58.432	.	.
.	.	8d-	I'm	.	.	.	.	.	.	.	.
.	.	16e-	swing-	.	.	.	.	.	.	.	.
.	.	16B-	-in'	.	.	.	.	.	.	.	.
.	.	16F	this,	.	.	.	.	.	.	.	.
.	.	8r	.	.	.	.	.	.	.	.	.
=31	=31	=31	=31	=31	=31	=31	=31	=31	=31	=31	=31
2-VI	G-:1	8f	Strict-	1r	.	1r	.	.	59.421	.	voice
.	.	16f	-ly	.	.	.	.	.	.	.	.
.	.	16e-	hip	.	.	.	.	C	.	.	.
.	.	16r	.	.	.	.	.	.	.	.	.
.	.	8d-	hop,	.	.	.	.	.	.	.	.
.	.	16B-	boy,	.	.	.	.	.	.	.	.
2-VII	A-:1	8e	I	.	.	.	.	.	60.409	.	.
.	.	8e-	ain't	.	.	.	.	.	.	.	.
.	.	16d-	sing-	.	.	.	.	.	.	.	.
.	.	16B-	-in'	.	.	.	.	.	.	.	.
.	.	16F	this!	.	.	.	.	.	.	.	.
.	.	16r	.	.	.	.	.	.	.	.	.
=32	=32	=32	=32	=32	=32	=32	=32	=32	=32	=32	=32
2-VII	A-:1	16f	Bring-	8.d-	Ooh!	1r	.	.	61.398	.	voice
.	.	16F	-in'	.	.	.	.	.	.	.	.
.	.	16F	this	.	.	.	.	.	.	.	.
.	.	16r	.	16e-	_	.	.	.	.	.	.
.	.	16r	.	4r	.	.	.	.	.	.	.
.	.	16f	to	.	.	.	.	.	.	.	.
.	.	16f	the	.	.	.	.	.	.	.	.
.	.	16c	en-	.	.	.	.	.	.	.	.
2i	B-:1	16e-	-ti-	2r	.	.	.	.	62.386	.	.
.	.	8c	-re	.	.	.	.	.	.	.	.
.	.	[16g	na	.	.	.	.	(A	.	.	.
.	.	16g]	_	.	.	.	.	.	.	.	.
.	.	16f	tion,	.	.	.	.	a)	.	.	.
.	.	8r	.	.	.	.	.	.	.	.	.
=33	=33	=33	=33	=33	=33	=33	=33	=33	=33	=33	=33
2-VI	G-:1	16f	black,	1r	.	1r	.	.	63.374	.	voice
.	.	8r	.	.	.	.	.	.	.	.	.
.	.	16e-	white,	.	.	.	.	.	.	.	.
.	.	8r	.	.	.	.	.	.	.	.	.
.	.	16d-	brown,	.	.	.	.	.	.	.	.
.	.	16r	.	.	.	.	.	.	.	.	.
2-VII	A-:1	16r	.	.	.	.	.	.	64.363	.	.
.	.	8e-	red,	.	.	.	.	.	.	.	.
.	.	[16f	feel	.	.	.	.	.	.	.	.
.	.	16f]	_	.	.	.	.	.	.	.	.
.	.	16e-	the	.	.	.	.	.	.	.	.
.	.	8c	vi-	.	.	.	.	.	.	.	.
=34	=34	=34	=34	=34	=34	=34	=34	=34	=34	=34	=34
*>Letter>B	*>Letter>B	*>Letter>B	*>Letter>B	*>Letter>B	*>Letter>B	*>Letter>B	*>Letter>B	*>Letter>B	*>Letter>B	*>Letter>B	*>Letter>B
*>Label>Prechorus	*>Label>Prechorus	*>Label>Prechorus	*>Label>Prechorus	*>Label>Prechorus	*>Label>Prechorus	*>Label>Prechorus	*>Label>Prechorus	*>Label>Prechorus	*>Label>Prechorus	*>Label>Prechorus	*>Label>Prechorus
2-VII	A-:maj	8B-	-bra-	1r	.	1r	.	(A	65.351	newline	voice
.	.	8F	-tion!	.	.	.	.	a)	.	.	.
.	.	4r	.	.	.	.	.	.	.	.	.
2id	B-:min/b7	16f	Come	.	.	.	.	.	66.337	.	.
.	.	8c	on,	.	.	.	.	.	.	.	.
.	.	16g	come	.	.	.	.	.	.	.	.
.	.	[4f	on!	.	.	.	.	.	.	.	.
=35	=35	=35	=35	=35	=35	=35	=35	=35	=35	=35	=35
2-VI	G-:maj	16f]	_	1r	.	1r	.	.	67.322	.	voice
.	.	8.r	.	.	.	.	.	.	.	.	.
.	.	4r	.	.	.	.	.	.	.	.	.
2-VII	A-:maj	8e-	Feel	.	.	.	.	.	68.307	.	.
.	.	8c	it,	.	.	.	.	.	.	.	.
.	.	8e-	feel	.	.	.	.	.	.	.	.
.	.	8c	it!	.	.	.	.	.	.	.	.
=36	=36	=36	=36	=36	=36	=36	=36	=36	=36	=36	=36
2-VII	A-:maj	2r	.	1r	.	1r	.	.	69.292	.	voice
2id	B-:min/b7	8.r	.	.	.	.	.	.	70.277	.	.
.	.	[16f	Feel	.	.	.	.	.	.	.	.
.	.	16f]	_	.	.	.	.	.	.	.	.
.	.	16e-	the	.	.	.	.	.	.	.	.
.	.	8c	vi-	.	.	.	.	.	.	.	.
=37	=37	=37	=37	=37	=37	=37	=37	=37	=37	=37	=37
2-VI	G-:maj	8e-	-bra-	2r	.	1r	.	(A	71.262	.	voice
.	.	8F	-tion!	.	.	.	.	a)	.	.	.
.	.	4r	.	.	.	.	.	.	.	.	.
2-VII	A-:maj	2r	.	8r	.	.	.	.	72.248	.	.
.	.	.	.	8a-	It's	.	.	.	.	.	.
.	.	.	.	8b-	such	.	.	.	.	.	.
.	.	.	.	8dd-	a	.	.	.	.	.	.
=38	=38	=38	=38	=38	=38	=38	=38	=38	=38	=38	=38
*>Letter>B	*>Letter>B	*>Letter>B	*>Letter>B	*>Letter>B	*>Letter>B	*>Letter>B	*>Letter>B	*>Letter>B	*>Letter>B	*>Letter>B	*>Letter>B
*>Label>Chorus	*>Label>Chorus	*>Label>Chorus	*>Label>Chorus	*>Label>Chorus	*>Label>Chorus	*>Label>Chorus	*>Label>Chorus	*>Label>Chorus	*>Label>Chorus	*>Label>Chorus	*>Label>Chorus
2-VII	A-:maj	1r	.	8r	.	8r	.	.	73.233	newline	voice
.	.	.	.	8ff	good	[8AA-	Bom,	.	.	.	.
.	.	.	.	8r	.	16AA-]	_	.	.	.	.
.	.	.	.	.	.	8.AA-	bom,	.	.	.	.
.	.	.	.	8b-	vi-	.	.	.	.	.	.
2i7	B-:min7	.	.	8b-	-bra-	8.BB-	bom,	(A	74.221	.	.
.	.	.	.	8b-	-tion!	.	.	a)	.	.	.
.	.	.	.	.	.	[16BB-	bom,	.	.	.	.
.	.	.	.	8dd-	_	16BB-]	_	.	.	.	.
.	.	.	.	.	.	8.BB-	bom,	.	.	.	.
.	.	.	.	8r	.	.	.	.	.	.	.
=39	=39	=39	=39	=39	=39	=39	=39	=39	=39	=39	=39
2-VI	G-:maj	1r	.	2r	.	8r	.	.	75.21	.	voice
.	.	.	.	.	.	[8GG-	bom,	.	.	.	.
.	.	.	.	.	.	16GG-]	_	.	.	.	.
.	.	.	.	.	.	8.GG-	bom,	.	.	.	.
2-VII	A-:maj	.	.	8r	.	8.AA-	bom,	.	76.198	.	.
.	.	.	.	8a-	It's	.	.	.	.	.	.
.	.	.	.	.	.	[16AA-	bom,	.	.	.	.
.	.	.	.	8b-	such	16AA-]	_	.	.	.	.
.	.	.	.	.	.	8.AA-	bom.	.	.	.	.
.	.	.	.	8dd-	a	.	.	.	.	.	.
=40	=40	=40	=40	=40	=40	=40	=40	=40	=40	=40	=40
2-VII	A-:maj	1r	.	8r	.	8r	.	.	77.187	.	voice
.	.	.	.	[8ee	sweet	[8AA-	Bom,	.	.	.	.
.	.	.	.	8ee]	_	16AA-]	_	.	.	.	.
.	.	.	.	.	.	8.AA-	bom,	.	.	.	.
.	.	.	.	[8ee-	_	.	.	.	.	.	.
2i7	B-:min7	.	.	6ee-]	_	8.BB-	bom,	.	78.176	.	.
.	.	.	.	6dd-	sen-	.	.	.	.	.	.
.	.	.	.	.	.	[16BB-	bom,	.	.	.	.
.	.	.	.	.	.	16BB-]	_	.	.	.	.
.	.	.	.	.	.	8.BB-	bom,	.	.	.	.
.	.	.	.	6b-	-sa-	.	.	(A	.	.	.
=41	=41	=41	=41	=41	=41	=41	=41	=41	=41	=41	=41
2-VI	G-:maj	1r	.	16b-	-tion!	8r	.	a)	79.164	.	voice
.	.	.	.	16a-	_	.	.	.	.	.	.
.	.	.	.	16b-	_	[8GG-	bom,	.	.	.	.
.	.	.	.	[16dd-	_	.	.	.	.	.	.
.	.	.	.	8dd-]	_	16GG-]	_	.	.	.	.
.	.	.	.	.	.	8.GG-	bom,	.	.	.	.
.	.	.	.	8ee-	_	.	.	.	.	.	.
2-VII	A-:maj	.	.	8r	.	8.AA-	bom,	.	80.153	.	.
.	.	.	.	8a-	It's	.	.	.	.	.	.
.	.	.	.	.	.	[16AA-	bom,	.	.	.	.
.	.	.	.	8b-	such	16AA-]	_	.	.	.	.
.	.	.	.	.	.	8.AA-	bom.	.	.	.	.
.	.	.	.	8dd-	a	.	.	.	.	.	.
=42	=42	=42	=42	=42	=42	=42	=42	=42	=42	=42	=42
2-VII	A-:maj	1r	.	8r	.	8r	.	.	81.141	newline	voice
.	.	.	.	8ff	good	[8AA-	Bom,	.	.	.	.
.	.	.	.	8r	.	16AA-]	_	.	.	.	.
.	.	.	.	.	.	8.AA-	bom,	.	.	.	.
.	.	.	.	8b-	vi-	.	.	.	.	.	.
2i7	B-:min7	.	.	8b-	-bra-	8.BB-	bom,	.	82.125	.	.
.	.	.	.	8b-	-tion!	.	.	.	.	.	.
.	.	.	.	.	.	[16BB-	bom,	.	.	.	.
.	.	.	.	8dd-	_	16BB-]	_	.	.	.	.
.	.	.	.	.	.	8.BB-	bom,	.	.	.	.
.	.	.	.	8r	.	.	.	.	.	.	.
=43	=43	=43	=43	=43	=43	=43	=43	=43	=43	=43	=43
2-VI	G-:maj	1r	.	2r	.	8r	.	.	83.109	.	voice
.	.	.	.	.	.	[8GG-	bom,	.	.	.	.
.	.	.	.	.	.	16GG-]	_	.	.	.	.
.	.	.	.	.	.	8.GG-	bom,	.	.	.	.
2-VII	A-:maj	.	.	8r	.	8.AA-	bom,	.	84.092	.	.
.	.	.	.	8a-	It's	.	.	.	.	.	.
.	.	.	.	.	.	[16AA-	bom,	.	.	.	.
.	.	.	.	8b-	such	16AA-]	_	.	.	.	.
.	.	.	.	.	.	8.AA-	bom.	.	.	.	.
.	.	.	.	8dd-	a	.	.	.	.	.	.
=44	=44	=44	=44	=44	=44	=44	=44	=44	=44	=44	=44
2-VII	A-:maj	1r	.	8r	.	8r	.	.	85.076	.	voice
.	.	.	.	[8ee	sweet	[8AA-	Bom,	.	.	.	.
.	.	.	.	8ee]	_	16AA-]	_	.	.	.	.
.	.	.	.	.	.	8.AA-	bom,	.	.	.	.
.	.	.	.	[8ee-	_	.	.	.	.	.	.
2i7	B-:min7	.	.	6ee-]	_	8.BB-	bom,	.	86.06	.	.
.	.	.	.	6dd-	sen-	.	.	.	.	.	.
.	.	.	.	.	.	[16BB-	bom,	.	.	.	.
.	.	.	.	.	.	16BB-]	_	.	.	.	.
.	.	.	.	.	.	8.BB-	bom,	.	.	.	.
.	.	.	.	6b-	-sa-	.	.	.	.	.	.
=45	=45	=45	=45	=45	=45	=45	=45	=45	=45	=45	=45
2-VI	G-:maj	1r	.	16b-	-tion!	8r	.	.	87.044	.	voice
.	.	.	.	16a-	_	.	.	.	.	.	.
.	.	.	.	16b-	_	[8GG-	bom,	.	.	.	.
.	.	.	.	[16dd-	_	.	.	.	.	.	.
.	.	.	.	8dd-]	_	16GG-]	_	.	.	.	.
.	.	.	.	.	.	8.GG-	bom,	.	.	.	.
.	.	.	.	8ee-	_	.	.	.	.	.	.
2-VII	A-:maj	.	.	2r	.	8.AA-	bom,	.	88.027	.	.
.	.	.	.	.	.	[16AA-	bom,	.	.	.	.
.	.	.	.	.	.	16AA-]	_	.	.	.	.
.	.	.	.	.	.	8.AA-	bom.	.	.	.	.
=46	=46	=46	=46	=46	=46	=46	=46	=46	=46	=46	=46
*>Letter>A	*>Letter>A	*>Letter>A	*>Letter>A	*>Letter>A	*>Letter>A	*>Letter>A	*>Letter>A	*>Letter>A	*>Letter>A	*>Letter>A	*>Letter>A
*>Label>Verse	*>Label>Verse	*>Label>Verse	*>Label>Verse	*>Label>Verse	*>Label>Verse	*>Label>Verse	*>Label>Verse	*>Label>Verse	*>Label>Verse	*>Label>Verse	*>Label>Verse
2-VII	A-:1	16r	.	8.d-	Ooh!	1r	.	.	89.011	newline	voice
.	.	16d-	The	.	.	.	.	.	.	.	.
.	.	8f	vi-	.	.	.	.	.	.	.	.
.	.	.	.	16e-	_	.	.	.	.	.	.
.	.	8f	-bra-	4r	.	.	.	.	.	.	.
.	.	8B-	-tions,	.	.	.	.	.	.	.	.
2i	B-:1	8e-	good	2r	.	.	.	.	90.002	.	.
.	.	8d-	like	.	.	.	.	.	.	.	.
.	.	8.e-	Sun-	.	.	.	.	.	.	.	.
.	.	16B-	-kist,	.	.	.	.	D	.	.	.
=47	=47	=47	=47	=47	=47	=47	=47	=47	=47	=47	=47
2-VI	G-:1	4r	.	1r	.	1r	.	.	90.993	.	voice
.	.	16f	ma-	.	.	.	.	.	.	.	.
.	.	16c	-ny	.	.	.	.	.	.	.	.
.	.	16B-	wan-	.	.	.	.	.	.	.	.
.	.	16B-	-na	.	.	.	.	.	.	.	.
2-VII	A-:1	16c	know	.	.	.	.	.	91.985	.	.
.	.	8B-	who	.	.	.	.	.	.	.	.
.	.	[16e-	done	.	.	.	.	.	.	.	.
.	.	16e-]	_	.	.	.	.	.	.	.	.
.	.	8.c	this!	.	.	.	.	D	.	.	.
=48	=48	=48	=48	=48	=48	=48	=48	=48	=48	=48	=48
2-VII	A-:1	8r	.	8.d-	Ooh!	1r	.	.	92.976	.	voice
.	.	16f	Mar-	.	.	.	.	.	.	.	.
.	.	16e-	-ky	16e-	_	.	.	.	.	.	.
.	.	16f	Mark,	4r	.	.	.	.	.	.	.
.	.	8r	.	.	.	.	.	.	.	.	.
.	.	16c	and	.	.	.	.	.	.	.	.
2i	B-:1	16e-	I'm	2r	.	.	.	.	93.967	.	.
.	.	8f	here	.	.	.	.	.	.	.	.
.	.	16e-	to	.	.	.	.	.	.	.	.
.	.	8f	move	.	.	.	.	.	.	.	.
.	.	8c	you,	.	.	.	.	.	.	.	.
=49	=49	=49	=49	=49	=49	=49	=49	=49	=49	=49	=49
2-VI	G-:1	8d-	rhymes	1r	.	1r	.	.	94.958	.	voice
.	.	16c	will	.	.	.	.	.	.	.	.
.	.	[16f	groove	.	.	.	.	.	.	.	.
.	.	16f]	_	.	.	.	.	.	.	.	.
.	.	16B-	you.	.	.	.	.	.	.	.	.
.	.	16r	.	.	.	.	.	.	.	.	.
.	.	16B-	and	.	.	.	.	.	.	.	.
2-VII	A-:1	16d-	I'm	.	.	.	.	.	95.95	.	.
.	.	8e-	here	.	.	.	.	.	.	.	.
.	.	16d-	to	.	.	.	.	.	.	.	.
.	.	8f	prove	.	.	.	.	.	.	.	.
.	.	16B-	to	.	.	.	.	.	.	.	.
.	.	16B-	you,	.	.	.	.	.	.	.	.
=50	=50	=50	=50	=50	=50	=50	=50	=50	=50	=50	=50
2-VII	A-:1	16r	.	8.d-	Ooh!	1r	.	.	96.941	newline	voice
.	.	16f	that	.	.	.	.	.	.	.	.
.	.	16f	we	.	.	.	.	.	.	.	.
.	.	16f	can	16e-	_	.	.	.	.	.	.
.	.	16c	par-	4r	.	.	.	.	.	.	.
.	.	16c	-ty	.	.	.	.	.	.	.	.
.	.	16B-	on	.	.	.	.	.	.	.	.
.	.	16B-	the	.	.	.	.	.	.	.	.
2i	B-:1	16e-	po-	2r	.	.	.	.	97.925	.	.
.	.	16e-	-si-	.	.	.	.	.	.	.	.
.	.	16e-	-tive	.	.	.	.	.	.	.	.
.	.	[16e-	side	.	.	.	.	B	.	.	.
.	.	16e-]	_	.	.	.	.	.	.	.	.
.	.	16e-	and	.	.	.	.	.	.	.	.
.	.	8d-	pump	.	.	.	.	.	.	.	.
=51	=51	=51	=51	=51	=51	=51	=51	=51	=51	=51	=51
2-VI	G-:1	16e-	po-	1r	.	1r	.	.	98.909	.	voice
.	.	16e-	-si-	.	.	.	.	.	.	.	.
.	.	16e-	-tive	.	.	.	.	.	.	.	.
.	.	[16e-	vibes,	.	.	.	.	B	.	.	.
.	.	16e-]	_	.	.	.	.	.	.	.	.
.	.	16e-	so	.	.	.	.	.	.	.	.
.	.	16d-	come	.	.	.	.	.	.	.	.
.	.	16c	a-	.	.	.	.	.	.	.	.
2-VII	A-:1	8e-	-long	.	.	.	.	.	99.894	.	.
.	.	16f	for	.	.	.	.	.	.	.	.
.	.	16f	the	.	.	.	.	.	.	.	.
.	.	8e-	ride!	.	.	.	.	B	.	.	.
.	.	8r	.	.	.	.	.	.	.	.	.
=52	=52	=52	=52	=52	=52	=52	=52	=52	=52	=52	=52
2-VII	A-:1	16e-	Ma-	8.d-	Ooh!	1r	.	.	100.878	.	voice
.	.	16e-	-kin'	.	.	.	.	.	.	.	.
.	.	8d-	you	.	.	.	.	.	.	.	.
.	.	.	.	16e-	_	.	.	.	.	.	.
.	.	8f	feel	4r	.	.	.	.	.	.	.
.	.	16B-	the	.	.	.	.	.	.	.	.
.	.	16B-	rhy-	.	.	.	.	.	.	.	.
2i	B-:1	16B-	-thm	2r	.	.	.	.	101.862	.	.
.	.	16B-	is	.	.	.	.	.	.	.	.
.	.	8d-	my	.	.	.	.	.	.	.	.
.	.	8d-	oc-	.	.	.	.	.	.	.	.
.	.	8d-	-cu-	.	.	.	.	.	.	.	.
=53	=53	=53	=53	=53	=53	=53	=53	=53	=53	=53	=53
2-VI	G-:1	8.e-	-pa-	1r	.	1r	.	(A	102.846	.	voice
.	.	16B-	-tion,	.	.	.	.	a)	.	.	.
.	.	16r	.	.	.	.	.	.	.	.	.
.	.	8f	so	.	.	.	.	.	.	.	.
.	.	[16g-	feel	.	.	.	.	.	.	.	.
2-VII	A-:1	16g	_	.	.	.	.	.	103.831	.	.
.	.	16f	the	.	.	.	.	.	.	.	.
.	.	8d-	vi-	.	.	.	.	.	.	.	.
.	.	8d-	-bra-	.	.	.	.	(A	.	.	.
.	.	8B-	-tion!	.	.	.	.	a)	.	.	.
=54	=54	=54	=54	=54	=54	=54	=54	=54	=54	=54	=54
*>Letter>B	*>Letter>B	*>Letter>B	*>Letter>B	*>Letter>B	*>Letter>B	*>Letter>B	*>Letter>B	*>Letter>B	*>Letter>B	*>Letter>B	*>Letter>B
*>Label>Prechorus	*>Label>Prechorus	*>Label>Prechorus	*>Label>Prechorus	*>Label>Prechorus	*>Label>Prechorus	*>Label>Prechorus	*>Label>Prechorus	*>Label>Prechorus	*>Label>Prechorus	*>Label>Prechorus	*>Label>Prechorus
2-VII	A-:maj	2r	.	1r	.	1r	.	.	104.815	newline	voice
2id	B-:min/b7	16f	Come	.	.	.	.	.	105.804	.	.
.	.	8c	on,	.	.	.	.	.	.	.	.
.	.	16g	come	.	.	.	.	.	.	.	.
.	.	[4f	on!	.	.	.	.	.	.	.	.
=55	=55	=55	=55	=55	=55	=55	=55	=55	=55	=55	=55
2-VI	G-:maj	16f]	_	1r	.	1r	.	.	106.793	.	voice
.	.	8.r	.	.	.	.	.	.	.	.	.
.	.	4r	.	.	.	.	.	.	.	.	.
2-VII	A-:maj	8e-	Feel	.	.	.	.	.	107.782	.	.
.	.	8c	it,	.	.	.	.	.	.	.	.
.	.	8e-	feel	.	.	.	.	.	.	.	.
.	.	8c	it!	.	.	.	.	.	.	.	.
=56	=56	=56	=56	=56	=56	=56	=56	=56	=56	=56	=56
2-VII	A-:maj	2r	.	1r	.	1r	.	.	108.771	.	voice
2id	B-:min/b7	8.r	.	.	.	.	.	.	109.759	.	.
.	.	[16f	Feel	.	.	.	.	.	.	.	.
.	.	16f]	_	.	.	.	.	.	.	.	.
.	.	16e-	the	.	.	.	.	.	.	.	.
.	.	8c	vi-	.	.	.	.	.	.	.	.
=57	=57	=57	=57	=57	=57	=57	=57	=57	=57	=57	=57
2-VI	G-:maj	8e-	-bra-	2r	.	1r	.	(A	110.748	.	voice
.	.	8F	-tion!	.	.	.	.	a)	.	.	.
.	.	4r	.	.	.	.	.	.	.	.	.
2-VII	A-:maj	2r	.	8r	.	.	.	.	111.737	.	.
.	.	.	.	8a-	It's	.	.	.	.	.	.
.	.	.	.	8b-	such	.	.	.	.	.	.
.	.	.	.	8dd-	a	.	.	.	.	.	.
=58	=58	=58	=58	=58	=58	=58	=58	=58	=58	=58	=58
*>Letter>B	*>Letter>B	*>Letter>B	*>Letter>B	*>Letter>B	*>Letter>B	*>Letter>B	*>Letter>B	*>Letter>B	*>Letter>B	*>Letter>B	*>Letter>B
*>Label>Chorus	*>Label>Chorus	*>Label>Chorus	*>Label>Chorus	*>Label>Chorus	*>Label>Chorus	*>Label>Chorus	*>Label>Chorus	*>Label>Chorus	*>Label>Chorus	*>Label>Chorus	*>Label>Chorus
2-VII	A-:maj	1r	.	8r	.	8r	.	.	112.726	newline	voice
.	.	.	.	8ff	good	[8AA-	Bom,	.	.	.	.
.	.	.	.	8r	.	16AA-]	_	.	.	.	.
.	.	.	.	.	.	8.AA-	bom,	.	.	.	.
.	.	.	.	8b-	vi-	.	.	.	.	.	.
2i7	B-:min7	.	.	8b-	-bra-	8.BB-	bom,	(A	113.71	.	.
.	.	.	.	8b-	-tion!	.	.	a)	.	.	.
.	.	.	.	.	.	[16BB-	bom,	.	.	.	.
.	.	.	.	8dd-	_	16BB-]	_	.	.	.	.
.	.	.	.	.	.	8.BB-	bom,	.	.	.	.
.	.	.	.	8r	.	.	.	.	.	.	.
=59	=59	=59	=59	=59	=59	=59	=59	=59	=59	=59	=59
2-VI	G-:maj	1r	.	2r	.	8r	.	.	114.693	.	voice
.	.	.	.	.	.	[8GG-	bom,	.	.	.	.
.	.	.	.	.	.	16GG-]	_	.	.	.	.
.	.	.	.	.	.	8.GG-	bom,	.	.	.	.
2-VII	A-:maj	.	.	8r	.	8.AA-	bom,	.	115.676	.	.
.	.	.	.	8a-	It's	.	.	.	.	.	.
.	.	.	.	.	.	[16AA-	bom,	.	.	.	.
.	.	.	.	8b-	such	16AA-]	_	.	.	.	.
.	.	.	.	.	.	8.AA-	bom.	.	.	.	.
.	.	.	.	8dd-	a	.	.	.	.	.	.
=60	=60	=60	=60	=60	=60	=60	=60	=60	=60	=60	=60
2-VII	A-:maj	1r	.	8r	.	8r	.	.	116.66	.	voice
.	.	.	.	[8ee	sweet	[8AA-	Bom,	.	.	.	.
.	.	.	.	8ee]	_	16AA-]	_	.	.	.	.
.	.	.	.	.	.	8.AA-	bom,	.	.	.	.
.	.	.	.	[8ee-	_	.	.	.	.	.	.
2i7	B-:min7	.	.	6ee-]	_	8.BB-	bom,	.	117.643	.	.
.	.	.	.	6dd-	sen-	.	.	.	.	.	.
.	.	.	.	.	.	[16BB-	bom,	.	.	.	.
.	.	.	.	.	.	16BB-]	_	.	.	.	.
.	.	.	.	.	.	8.BB-	bom,	.	.	.	.
.	.	.	.	6b-	-sa-	.	.	(A	.	.	.
=61	=61	=61	=61	=61	=61	=61	=61	=61	=61	=61	=61
2-VI	G-:maj	1r	.	16b-	-tion!	8r	.	a)	118.627	.	voice
.	.	.	.	16a-	_	.	.	.	.	.	.
.	.	.	.	16b-	_	[8GG-	bom,	.	.	.	.
.	.	.	.	[16dd-	_	.	.	.	.	.	.
.	.	.	.	8dd-]	_	16GG-]	_	.	.	.	.
.	.	.	.	.	.	8.GG-	bom,	.	.	.	.
.	.	.	.	8ee-	_	.	.	.	.	.	.
2-VII	A-:maj	.	.	8r	.	8.AA-	bom,	.	119.61	.	.
.	.	.	.	8a-	It's	.	.	.	.	.	.
.	.	.	.	.	.	[16AA-	bom,	.	.	.	.
.	.	.	.	8b-	such	16AA-]	_	.	.	.	.
.	.	.	.	.	.	8.AA-	bom.	.	.	.	.
.	.	.	.	8dd-	a	.	.	.	.	.	.
=62	=62	=62	=62	=62	=62	=62	=62	=62	=62	=62	=62
2-VII	A-:maj	1r	.	8r	.	8r	.	.	120.594	newline	voice
.	.	.	.	8ff	good	[8AA-	Bom,	.	.	.	.
.	.	.	.	8r	.	16AA-]	_	.	.	.	.
.	.	.	.	.	.	8.AA-	bom,	.	.	.	.
.	.	.	.	8b-	vi-	.	.	.	.	.	.
2i7	B-:min7	.	.	8b-	-bra-	8.BB-	bom,	.	121.579	.	.
.	.	.	.	8b-	-tion!	.	.	.	.	.	.
.	.	.	.	.	.	[16BB-	bom,	.	.	.	.
.	.	.	.	8dd-	_	16BB-]	_	.	.	.	.
.	.	.	.	.	.	8.BB-	bom,	.	.	.	.
.	.	.	.	8r	.	.	.	.	.	.	.
=63	=63	=63	=63	=63	=63	=63	=63	=63	=63	=63	=63
2-VI	G-:maj	1r	.	2r	.	8r	.	.	122.564	.	voice
.	.	.	.	.	.	[8GG-	bom,	.	.	.	.
.	.	.	.	.	.	16GG-]	_	.	.	.	.
.	.	.	.	.	.	8.GG-	bom,	.	.	.	.
2-VII	A-:maj	.	.	8r	.	8.AA-	bom,	.	123.55	.	.
.	.	.	.	8a-	It's	.	.	.	.	.	.
.	.	.	.	.	.	[16AA-	bom,	.	.	.	.
.	.	.	.	8b-	such	16AA-]	_	.	.	.	.
.	.	.	.	.	.	8.AA-	bom.	.	.	.	.
.	.	.	.	8dd-	a	.	.	.	.	.	.
=64	=64	=64	=64	=64	=64	=64	=64	=64	=64	=64	=64
2-VII	A-:maj	1r	.	8r	.	8r	.	.	124.535	.	voice
.	.	.	.	[8ee	sweet	[8AA-	Bom,	.	.	.	.
.	.	.	.	8ee]	_	16AA-]	_	.	.	.	.
.	.	.	.	.	.	8.AA-	bom,	.	.	.	.
.	.	.	.	[8ee-	_	.	.	.	.	.	.
2i7	B-:min7	.	.	6ee-]	_	8.BB-	bom,	.	125.52	.	.
.	.	.	.	6dd-	sen-	.	.	.	.	.	.
.	.	.	.	.	.	[16BB-	bom,	.	.	.	.
.	.	.	.	.	.	16BB-]	_	.	.	.	.
.	.	.	.	.	.	8.BB-	bom,	.	.	.	.
.	.	.	.	6b-	-sa-	.	.	.	.	.	.
=65	=65	=65	=65	=65	=65	=65	=65	=65	=65	=65	=65
2-VI	G-:maj	4r	.	16b-	-tion!	8r	.	.	126.505	.	voice
.	.	.	.	16a-	_	.	.	.	.	.	.
.	.	.	.	16b-	_	[8GG-	bom,	.	.	.	.
.	.	.	.	[16dd-	_	.	.	.	.	.	.
.	.	8r	.	8dd-]	_	16GG-]	_	.	.	.	.
.	.	.	.	.	.	8.GG-	bom,	.	.	.	.
.	.	16e-	Don-	8ee-	_	.	.	.	.	.	.
.	.	16e-	-nie	.	.	.	.	.	.	.	.
2-VII	A-:maj	8e-	D,	2r	.	8.AA-	bom,	.	127.491	.	.
.	.	16g-]	break	.	.	.	.	.	.	.	.
.	.	16d-	it	.	.	[16AA-	bom,	.	.	.	.
.	.	8e-	down!	.	.	16AA-]	_	.	.	.	.
.	.	.	.	.	.	8.AA-	bom.	.	.	.	.
.	.	8r	.	.	.	.	.	.	.	.	.
=66	=66	=66	=66	=66	=66	=66	=66	=66	=66	=66	=66
*>Letter>C	*>Letter>C	*>Letter>C	*>Letter>C	*>Letter>C	*>Letter>C	*>Letter>C	*>Letter>C	*>Letter>C	*>Letter>C	*>Letter>C	*>Letter>C
*>Label>Bridge	*>Label>Bridge	*>Label>Bridge	*>Label>Bridge	*>Label>Bridge	*>Label>Bridge	*>Label>Bridge	*>Label>Bridge	*>Label>Bridge	*>Label>Bridge	*>Label>Bridge	*>Label>Bridge
1r	N	1r	.	1r	.	1r	.	.	128.476	newline	drums
=67	=67	=67	=67	=67	=67	=67	=67	=67	=67	=67	=67
1r	N	1r	.	1r	.	1r	.	.	129.464	.	drums
=68	=68	=68	=68	=68	=68	=68	=68	=68	=68	=68	=68
1r	N	1r	.	1r	.	1r	.	.	130.452	.	drums
=69	=69	=69	=69	=69	=69	=69	=69	=69	=69	=69	=69
1r	N	1r	.	1r	.	1r	.	.	131.44	.	drums
=70	=70	=70	=70	=70	=70	=70	=70	=70	=70	=70	=70
1r	N	1r	.	1r	.	1r	.	.	136.379	newline	drums
=71	=71	=71	=71	=71	=71	=71	=71	=71	=71	=71	=71
1r	N	1r	.	1r	.	1r	.	.	137.364	.	drums
=72	=72	=72	=72	=72	=72	=72	=72	=72	=72	=72	=72
1r	N	1r	.	1r	.	1r	.	.	138.348	.	drums
=73	=73	=73	=73	=73	=73	=73	=73	=73	=73	=73	=73
1r	N	1r	.	1r	.	1r	.	.	139.333	.	drums
=74	=74	=74	=74	=74	=74	=74	=74	=74	=74	=74	=74
*>Letter>A	*>Letter>A	*>Letter>A	*>Letter>A	*>Letter>A	*>Letter>A	*>Letter>A	*>Letter>A	*>Letter>A	*>Letter>A	*>Letter>A	*>Letter>A
*>Label>Verse	*>Label>Verse	*>Label>Verse	*>Label>Verse	*>Label>Verse	*>Label>Verse	*>Label>Verse	*>Label>Verse	*>Label>Verse	*>Label>Verse	*>Label>Verse	*>Label>Verse
2-VII	A-:1	4r	.	8.d-	Ooh!	8r	.	.	144.256	newline	voice
.	.	.	.	.	.	[8AA-	Bom,	.	.	.	.
.	.	.	.	16e-	_	.	.	.	.	.	.
.	.	8f	Don-	4r	.	16AA-]	_	.	.	.	.
.	.	.	.	.	.	8.AA-	bom,	.	.	.	.
.	.	16F	-nie	.	.	.	.	.	.	.	.
.	.	[16c	D's	.	.	.	.	.	.	.	.
2i	B-:1	16c]	_	2r	.	8.BB-	bom,	.	145.249	.	.
.	.	8e-	on	.	.	.	.	.	.	.	.
.	.	16e-	the	.	.	[16BB-	bom,	.	.	.	.
.	.	8.f	back-	.	.	16BB-]	_	E	.	.	.
.	.	.	.	.	.	8.BB-	bom,	.	.	.	.
.	.	16c	-up,	.	.	.	.	.	.	.	.
=75	=75	=75	=75	=75	=75	=75	=75	=75	=75	=75	=75
2-VI	G-:1	8r	.	1r	.	8r	.	.	146.243	.	voice
.	.	[8f	drug	.	.	[8GG-	bom,	.	.	.	.
.	.	16f]	_	.	.	16GG-]	_	.	.	.	.
.	.	16g	free,	.	.	8.GG-	bom,	.	.	.	.
.	.	8r	.	.	.	.	.	.	.	.	.
2-VII	A-:1	16r	.	.	.	8.AA-	bom,	.	147.236	.	.
.	.	16e-	so	.	.	.	.	.	.	.	.
.	.	16e-	put	.	.	.	.	.	.	.	.
.	.	16e-	the	.	.	[16AA-	bom,	.	.	.	.
.	.	8.f	crack	.	.	16AA-]	_	E	.	.	.
.	.	.	.	.	.	8.AA-	bom.	.	.	.	.
.	.	16c	up!	.	.	.	.	.	.	.	.
=76	=76	=76	=76	=76	=76	=76	=76	=76	=76	=76	=76
2-VII	A-:1	8r	.	8.d-	Ooh!	8r	.	.	148.23	.	voice
.	.	8c	No	.	.	[8AA-	Bom,	.	.	.	.
.	.	.	.	16e-	_	.	.	.	.	.	.
.	.	8e-	need	4r	.	16AA-]	_	F	.	.	.
.	.	.	.	.	.	8.AA-	bom,	.	.	.	.
.	.	16d-	for	.	.	.	.	.	.	.	.
.	.	[16e-	speed,	.	.	.	.	F	.	.	.
2i	B-:1	16e-]	_	2r	.	8.BB-	bom,	.	149.223	.	.
.	.	8d-	I'm	.	.	.	.	.	.	.	.
.	.	[16e-	an	.	.	[16BB-	bom,	.	.	.	.
.	.	16e-]	_	.	.	16BB-]	_	.	.	.	.
.	.	8.c	ti	.	.	8.BB-	bom,	.	.	.	.
=77	=77	=77	=77	=77	=77	=77	=77	=77	=77	=77	=77
2-VI	G-:1	16f	D-	1r	.	8r	.	.	150.216	.	voice
.	.	16e-	-R	.	.	.	.	.	.	.	.
.	.	16r	.	.	.	[8GG-	bom,	.	.	.	.
.	.	16e-	U-	.	.	.	.	.	.	.	.
.	.	16r	.	.	.	16GG-]	_	.	.	.	.
.	.	16e-	-G-	.	.	8.GG-	bom,	F	.	.	.
.	.	16r	.	.	.	.	.	.	.	.	.
.	.	16e-	-G-	.	.	.	.	F	.	.	.
2-VII	A-:1	16r	.	.	.	8.AA-	bom,	.	151.21	.	.
.	.	16c	-I-	.	.	.	.	.	.	.	.
.	.	16r	.	.	.	.	.	.	.	.	.
.	.	16e-	-E	.	.	[16AA-	bom,	F	.	.	.
.	.	16r	.	.	.	16AA-]	_	.	.	.	.
.	.	8.c	my	.	.	8.AA-	bom.	.	.	.	.
=78	=78	=78	=78	=78	=78	=78	=78	=78	=78	=78	=78
2-VII	A-:1	16f	bo-	8.d-	Ooh!	1r	.	.	152.203	newline	voice
.	.	16f	-dy	.	.	.	.	.	.	.	.
.	.	8F	is	.	.	.	.	.	.	.	.
.	.	.	.	16e-	_	.	.	.	.	.	.
.	.	8.f	heal-	4r	.	.	.	(G	.	.	.
.	.	16F	-thy,	.	.	.	.	g)	.	.	.
2i	B-:1	8r	.	2r	.	.	.	.	153.182	.	.
.	.	16f	my	.	.	.	.	.	.	.	.
.	.	[16f	rhymes	.	.	.	.	.	.	.	.
.	.	16f]	_	.	.	.	.	.	.	.	.
.	.	8e-	make	.	.	.	.	.	.	.	.
.	.	16c	me	.	.	.	.	.	.	.	.
=79	=79	=79	=79	=79	=79	=79	=79	=79	=79	=79	=79
2-VI	G-:1	8.e-	weal-	1r	.	1r	.	(G	154.161	.	voice
.	.	16F	-thy,	.	.	.	.	g)	.	.	.
.	.	8r	.	.	.	.	.	.	.	.	.
.	.	16c	and	.	.	.	.	.	.	.	.
.	.	16c	the	.	.	.	.	.	.	.	.
2-VII	A-:1	16e-	Fun-	.	.	.	.	.	155.14	.	.
.	.	16e-	-ky	.	.	.	.	.	.	.	.
.	.	8c	Bunch	.	.	.	.	.	.	.	.
.	.	8.e-	helps	.	.	.	.	(G	.	.	.
.	.	16F	me	.	.	.	.	g)	.	.	.
=80	=80	=80	=80	=80	=80	=80	=80	=80	=80	=80	=80
2-VII	A-:1	16r	.	8.d-	Ooh!	1r	.	.	156.119	.	voice
.	.	16d-	to	.	.	.	.	.	.	.	.
.	.	8f	bring	.	.	.	.	.	.	.	.
.	.	.	.	16e-	_	.	.	.	.	.	.
.	.	6e-	you	4r	.	.	.	.	.	.	.
.	.	12c	a	.	.	.	.	.	.	.	.
2i	B-:1	12e-	show	2r	.	.	.	.	157.098	.	.
.	.	12e-	with	.	.	.	.	.	.	.	.
.	.	12c	no	.	.	.	.	.	.	.	.
.	.	12e-	in-	.	.	.	.	.	.	.	.
.	.	12e-	-tox-	.	.	.	.	.	.	.	.
.	.	12c	-i-	.	.	.	.	.	.	.	.
=81	=81	=81	=81	=81	=81	=81	=81	=81	=81	=81	=81
2-VI	G-:1	8e-	-ca-	1r	.	1r	.	(A	158.077	.	voice
.	.	8e-	-tion,	.	.	.	.	a)	.	.	.
.	.	16r	.	.	.	.	.	.	.	.	.
.	.	16c	so	.	.	.	.	.	.	.	.
.	.	16g-	come	.	.	.	.	.	.	.	.
.	.	[16g-	on,	.	.	.	.	.	.	.	.
2-VII	A-:1	8g-]	_	.	.	.	.	.	159.057	.	.
.	.	16r	.	.	.	.	.	.	.	.	.
.	.	[16e-	feel	.	.	.	.	.	.	.	.
.	.	16e-]	_	.	.	.	.	.	.	.	.
.	.	16c	the	.	.	.	.	.	.	.	.
.	.	8e-	vi-	.	.	.	.	.	.	.	.
=82	=82	=82	=82	=82	=82	=82	=82	=82	=82	=82	=82
*>Letter>B	*>Letter>B	*>Letter>B	*>Letter>B	*>Letter>B	*>Letter>B	*>Letter>B	*>Letter>B	*>Letter>B	*>Letter>B	*>Letter>B	*>Letter>B
*>Label>Prechorus	*>Label>Prechorus	*>Label>Prechorus	*>Label>Prechorus	*>Label>Prechorus	*>Label>Prechorus	*>Label>Prechorus	*>Label>Prechorus	*>Label>Prechorus	*>Label>Prechorus	*>Label>Prechorus	*>Label>Prechorus
2-VII	A-:maj	8c	-bra-	1r	.	1r	.	(A	160.036	newline	voice
.	.	8F	-tion!	.	.	.	.	a)	.	.	.
.	.	4r	.	.	.	.	.	.	.	.	.
2id	B-:min/b7	4r	.	.	.	.	.	.	161.025	.	.
.	.	8r	.	.	.	.	.	.	.	.	.
.	.	[8C-	Yeah!	.	.	.	.	.	.	.	.
=83	=83	=83	=83	=83	=83	=83	=83	=83	=83	=83	=83
2-VI	G-:maj	8C-]	_	1r	.	1r	.	.	162.014	.	voice
.	.	8r	.	.	.	.	.	.	.	.	.
.	.	4r	.	.	.	.	.	.	.	.	.
2-VII	A-:maj	4r	.	.	.	.	.	.	163.003	.	.
.	.	8r	.	.	.	.	.	.	.	.	.
.	.	16BB-	Can	.	.	.	.	.	.	.	.
.	.	16BB-	you	.	.	.	.	.	.	.	.
=84	=84	=84	=84	=84	=84	=84	=84	=84	=84	=84	=84
2-VII	A-:maj	16D	feel	1r	.	1r	.	.	163.993	.	voice
.	.	16D	it,	.	.	.	.	.	.	.	.
.	.	16D	ba-	.	.	.	.	.	.	.	.
.	.	16D	-by?	.	.	.	.	.	.	.	.
.	.	4r	.	.	.	.	.	.	.	.	.
2id	B-:min/b7	4r	.	.	.	.	.	.	164.982	.	.
.	.	8r	.	.	.	.	.	.	.	.	.
.	.	8D	I	.	.	.	.	.	.	.	.
=85	=85	=85	=85	=85	=85	=85	=85	=85	=85	=85	=85
2-VI	G-:maj	8C	can,	2r	.	1r	.	.	165.971	.	voice
.	.	8AA-	too.	.	.	.	.	.	.	.	.
.	.	4r	.	.	.	.	.	.	.	.	.
2-VII	A-:maj	2r	.	8r	.	.	.	.	166.961	.	.
.	.	.	.	8a-	It's	.	.	.	.	.	.
.	.	.	.	8b-	such	.	.	.	.	.	.
.	.	.	.	8dd-	a	.	.	.	.	.	.
=86	=86	=86	=86	=86	=86	=86	=86	=86	=86	=86	=86
*>Letter>B	*>Letter>B	*>Letter>B	*>Letter>B	*>Letter>B	*>Letter>B	*>Letter>B	*>Letter>B	*>Letter>B	*>Letter>B	*>Letter>B	*>Letter>B
*>Label>Chorus	*>Label>Chorus	*>Label>Chorus	*>Label>Chorus	*>Label>Chorus	*>Label>Chorus	*>Label>Chorus	*>Label>Chorus	*>Label>Chorus	*>Label>Chorus	*>Label>Chorus	*>Label>Chorus
2-VII	A-:maj	1r	.	8r	.	8r	.	.	167.95	newline	voice
.	.	.	.	8ff	good	[8AA-	Bom,	.	.	.	.
.	.	.	.	8r	.	16AA-]	_	.	.	.	.
.	.	.	.	.	.	8.AA-	bom,	.	.	.	.
.	.	.	.	8b-	vi-	.	.	.	.	.	.
2i7	B-:min7	.	.	8b-	-bra-	8.BB-	bom,	(A	168.937	.	.
.	.	.	.	8b-	-tion!	.	.	a)	.	.	.
.	.	.	.	.	.	[16BB-	bom,	.	.	.	.
.	.	.	.	8dd-	_	16BB-]	_	.	.	.	.
.	.	.	.	.	.	8.BB-	bom,	.	.	.	.
.	.	.	.	8r	.	.	.	.	.	.	.
=87	=87	=87	=87	=87	=87	=87	=87	=87	=87	=87	=87
2-VI	G-:maj	1r	.	2r	.	8r	.	.	169.924	.	voice
.	.	.	.	.	.	[8GG-	bom,	.	.	.	.
.	.	.	.	.	.	16GG-]	_	.	.	.	.
.	.	.	.	.	.	8.GG-	bom,	.	.	.	.
2-VII	A-:maj	.	.	8r	.	8.AA-	bom,	.	170.91	.	.
.	.	.	.	8a-	It's	.	.	.	.	.	.
.	.	.	.	.	.	[16AA-	bom,	.	.	.	.
.	.	.	.	8b-	such	16AA-]	_	.	.	.	.
.	.	.	.	.	.	8.AA-	bom.	.	.	.	.
.	.	.	.	8dd-	a	.	.	.	.	.	.
=88	=88	=88	=88	=88	=88	=88	=88	=88	=88	=88	=88
2-VII	A-:maj	1r	.	8r	.	8r	.	.	171.897	.	voice
.	.	.	.	[8ee	sweet	[8AA-	Bom,	.	.	.	.
.	.	.	.	8ee]	_	16AA-]	_	.	.	.	.
.	.	.	.	.	.	8.AA-	bom,	.	.	.	.
.	.	.	.	[8ee-	_	.	.	.	.	.	.
2i7	B-:min7	.	.	6ee-]	_	8.BB-	bom,	.	172.884	.	.
.	.	.	.	6dd-	sen-	.	.	.	.	.	.
.	.	.	.	.	.	[16BB-	bom,	.	.	.	.
.	.	.	.	.	.	16BB-]	_	.	.	.	.
.	.	.	.	.	.	8.BB-	bom,	.	.	.	.
.	.	.	.	6b-	-sa-	.	.	(A	.	.	.
=89	=89	=89	=89	=89	=89	=89	=89	=89	=89	=89	=89
2-VI	G-:maj	1r	.	16b-	-tion!	8r	.	a)	173.871	.	voice
.	.	.	.	16a-	_	.	.	.	.	.	.
.	.	.	.	16b-	_	[8GG-	bom,	.	.	.	.
.	.	.	.	[16dd-	_	.	.	.	.	.	.
.	.	.	.	8dd-]	_	16GG-]	_	.	.	.	.
.	.	.	.	.	.	8.GG-	bom,	.	.	.	.
.	.	.	.	8ee-	_	.	.	.	.	.	.
2-VII	A-:maj	.	.	8r	.	8.AA-	bom,	.	174.858	.	.
.	.	.	.	8a-	It's	.	.	.	.	.	.
.	.	.	.	.	.	[16AA-	bom,	.	.	.	.
.	.	.	.	8b-	such	16AA-]	_	.	.	.	.
.	.	.	.	.	.	8.AA-	bom.	.	.	.	.
.	.	.	.	8dd-	a	.	.	.	.	.	.
=90	=90	=90	=90	=90	=90	=90	=90	=90	=90	=90	=90
2-VII	A-:maj	1r	.	8r	.	8r	.	.	175.845	newline	voice
.	.	.	.	8ff	good	[8AA-	Bom,	.	.	.	.
.	.	.	.	8r	.	16AA-]	_	.	.	.	.
.	.	.	.	.	.	8.AA-	bom,	.	.	.	.
.	.	.	.	8b-	vi-	.	.	.	.	.	.
2i7	B-:min7	.	.	8b-	-bra-	8.BB-	bom,	.	176.831	.	.
.	.	.	.	8b-	-tion!	.	.	.	.	.	.
.	.	.	.	.	.	[16BB-	bom,	.	.	.	.
.	.	.	.	8dd-	_	16BB-]	_	.	.	.	.
.	.	.	.	.	.	8.BB-	bom,	.	.	.	.
.	.	.	.	8r	.	.	.	.	.	.	.
=91	=91	=91	=91	=91	=91	=91	=91	=91	=91	=91	=91
2-VI	G-:maj	1r	.	2r	.	8r	.	.	177.817	.	voice
.	.	.	.	.	.	[8GG-	bom,	.	.	.	.
.	.	.	.	.	.	16GG-]	_	.	.	.	.
.	.	.	.	.	.	8.GG-	bom,	.	.	.	.
2-VII	A-:maj	.	.	8r	.	8.AA-	bom,	.	178.803	.	.
.	.	.	.	8a-	It's	.	.	.	.	.	.
.	.	.	.	.	.	[16AA-	bom,	.	.	.	.
.	.	.	.	8b-	such	16AA-]	_	.	.	.	.
.	.	.	.	.	.	8.AA-	bom.	.	.	.	.
.	.	.	.	8dd-	a	.	.	.	.	.	.
=92	=92	=92	=92	=92	=92	=92	=92	=92	=92	=92	=92
2-VII	A-:maj	1r	.	8r	.	8r	.	.	179.789	.	voice
.	.	.	.	[8ee	sweet	[8AA-	Bom,	.	.	.	.
.	.	.	.	8ee]	_	16AA-]	_	.	.	.	.
.	.	.	.	.	.	8.AA-	bom,	.	.	.	.
.	.	.	.	[8ee-	_	.	.	.	.	.	.
2i7	B-:min7	.	.	6ee-]	_	8.BB-	bom,	.	180.775	.	.
.	.	.	.	6dd-	sen-	.	.	.	.	.	.
.	.	.	.	.	.	[16BB-	bom,	.	.	.	.
.	.	.	.	.	.	16BB-]	_	.	.	.	.
.	.	.	.	.	.	8.BB-	bom,	.	.	.	.
.	.	.	.	6b-	-sa-	.	.	.	.	.	.
=93	=93	=93	=93	=93	=93	=93	=93	=93	=93	=93	=93
2-VI	G-:maj	1r	.	16b-	-tion!	8r	.	.	181.761	.	voice
.	.	.	.	16a-	_	.	.	.	.	.	.
.	.	.	.	16b-	_	[8GG-	bom,	.	.	.	.
.	.	.	.	[16dd-	_	.	.	.	.	.	.
.	.	.	.	8dd-]	_	16GG-]	_	.	.	.	.
.	.	.	.	.	.	8.GG-	bom,	.	.	.	.
.	.	.	.	8ee-	_	.	.	.	.	.	.
2-VII	A-:maj	.	.	2r	.	8.AA-	bom,	.	182.747	.	.
.	.	.	.	.	.	[16AA-	bom,	.	.	.	.
.	.	.	.	.	.	16AA-]	_	.	.	.	.
.	.	.	.	.	.	8.AA-	bom.	.	.	.	.
=94	=94	=94	=94	=94	=94	=94	=94	=94	=94	=94	=94
*>Letter>A	*>Letter>A	*>Letter>A	*>Letter>A	*>Letter>A	*>Letter>A	*>Letter>A	*>Letter>A	*>Letter>A	*>Letter>A	*>Letter>A	*>Letter>A
*>Label>Verse	*>Label>Verse	*>Label>Verse	*>Label>Verse	*>Label>Verse	*>Label>Verse	*>Label>Verse	*>Label>Verse	*>Label>Verse	*>Label>Verse	*>Label>Verse	*>Label>Verse
2-VII	A-:maj	8f	Now,	1r	.	1r	.	.	183.734	newline	voice
.	.	16r	.	.	.	.	.	.	.	.	.
.	.	16B-	the	.	.	.	.	.	.	.	.
.	.	8e	time	.	.	.	.	.	.	.	.
.	.	16d-	has	.	.	.	.	.	.	.	.
.	.	[16e	come	.	.	.	.	.	.	.	.
2id	B-:min/b7	16e]	_	.	.	.	.	.	184.721	.	.
.	.	16e	for	.	.	.	.	.	.	.	.
.	.	16e	you	.	.	.	.	.	.	.	.
.	.	16d-	to	.	.	.	.	.	.	.	.
.	.	16e	get	.	.	.	.	H	.	.	.
.	.	16d-	up!	.	.	.	.	.	.	.	.
.	.	16r	.	.	.	.	.	.	.	.	.
.	.	16d-	The	.	.	.	.	.	.	.	.
=95	=95	=95	=95	=95	=95	=95	=95	=95	=95	=95	=95
2-VI	G-:maj	12e-	rest	1r	.	1r	.	.	185.709	.	voice
.	.	12e-	had	.	.	.	.	.	.	.	.
.	.	12d-	you	.	.	.	.	.	.	.	.
.	.	16e-	fed	.	.	.	.	H	.	.	.
.	.	16d-	up,	.	.	.	.	.	.	.	.
.	.	16r	.	.	.	.	.	.	.	.	.
.	.	16d-	but	.	.	.	.	.	.	.	.
2-VII	A-:maj	16e	yo,	.	.	.	.	.	186.696	.	.
.	.	16e	I	.	.	.	.	.	.	.	.
.	.	8B-	won't	.	.	.	.	.	.	.	.
.	.	16d-	let	.	.	.	.	H	.	.	.
.	.	16d-	up,	.	.	.	.	.	.	.	.
.	.	8r	.	.	.	.	.	.	.	.	.
=96	=96	=96	=96	=96	=96	=96	=96	=96	=96	=96	=96
2-VII	A-:maj	16r	.	1r	.	1r	.	.	187.684	.	voice
.	.	8f	On	.	.	.	.	.	.	.	.
.	.	16e-	the	.	.	.	.	.	.	.	.
.	.	16e-	rhy-	.	.	.	.	.	.	.	.
.	.	16e-	-thm	.	.	.	.	.	.	.	.
.	.	16d-	and	.	.	.	.	.	.	.	.
.	.	[16e-	rhyme	.	.	.	.	B	.	.	.
2id	B-:min/b7	16e-]	_	.	.	.	.	.	188.671	.	.
.	.	8e-	that's	.	.	.	.	.	.	.	.
.	.	16d-	de-	.	.	.	.	.	.	.	.
.	.	8e-	-signed	.	.	.	.	B	.	.	.
.	.	8d-	to	.	.	.	.	.	.	.	.
=97	=97	=97	=97	=97	=97	=97	=97	=97	=97	=97	=97
2-VI	G-:maj	16e-	make	1r	.	1r	.	.	189.659	.	voice
.	.	16e-	your	.	.	.	.	.	.	.	.
.	.	16d-	be-	.	.	.	.	.	.	.	.
.	.	[16e	-hind	.	.	.	.	B	.	.	.
.	.	16e]	_	.	.	.	.	.	.	.	.
.	.	8e-	move	.	.	.	.	.	.	.	.
.	.	16f	to	.	.	.	.	.	.	.	.
2-VII	A-:maj	16e-	what	.	.	.	.	.	190.647	.	.
.	.	16e-	I'm	.	.	.	.	.	.	.	.
.	.	16d-	in-	.	.	.	.	.	.	.	.
.	.	[16f	-clined	.	.	.	.	B	.	.	.
.	.	16f]	_	.	.	.	.	.	.	.	.
.	.	8B-	to!	.	.	.	.	.	.	.	.
.	.	16r	.	.	.	.	.	.	.	.	.
=98	=98	=98	=98	=98	=98	=98	=98	=98	=98	=98	=98
2-VII	A-:maj	8r	.	1r	.	1r	.	.	191.634	newline	voice
.	.	8f	Pure	.	.	.	.	.	.	.	.
.	.	8g-	hip-	.	.	.	.	.	.	.	.
.	.	8e-	-hop,	.	.	.	.	.	.	.	.
2i7	B-:min7	8r	.	.	.	.	.	.	192.622	.	.
.	.	8f	no	.	.	.	.	.	.	.	.
.	.	16e-	sell-	.	.	.	.	(I	.	.	.
.	.	16e-	-out,	.	.	.	.	i)	.	.	.
.	.	16r	.	.	.	.	.	.	.	.	.
.	.	16d-	if	.	.	.	.	.	.	.	.
=99	=99	=99	=99	=99	=99	=99	=99	=99	=99	=99	=99
2-VI	G-:maj	16f	you	1r	.	1r	.	.	193.609	.	voice
.	.	16f	ain't	.	.	.	.	.	.	.	.
.	.	8r	.	.	.	.	.	.	.	.	.
.	.	16g-	in	.	.	.	.	J	.	.	.
.	.	16f	it	.	.	.	.	.	.	.	.
.	.	16e-	to	.	.	.	.	.	.	.	.
.	.	16g-	win	.	.	.	.	J	.	.	.
2-VII	A-:maj	16g-	it,	.	.	.	.	.	194.597	.	.
.	.	16F	then	.	.	.	.	.	.	.	.
.	.	16A-	get	.	.	.	.	.	.	.	.
.	.	16F	the	.	.	.	.	.	.	.	.
.	.	16e-	hell	.	.	.	.	(I	.	.	.
.	.	16F	out!	.	.	.	.	i)	.	.	.
.	.	8r	.	.	.	.	.	.	.	.	.
=100	=100	=100	=100	=100	=100	=100	=100	=100	=100	=100	=100
2-VII	A-:maj	8e-	I	1r	.	1r	.	.	195.584	.	voice
.	.	16c	com-	.	.	.	.	.	.	.	.
.	.	[16f	-mand	.	.	.	.	K	.	.	.
.	.	16f]	_	.	.	.	.	.	.	.	.
.	.	16e-	you	.	.	.	.	.	.	.	.
.	.	16c	to	.	.	.	.	.	.	.	.
.	.	[16f	dance,	.	.	.	.	K	.	.	.
2i7	B-:min7	16f]	_	.	.	.	.	.	196.572	.	.
.	.	16c	I	.	.	.	.	.	.	.	.
.	.	16A-	wan-	.	.	.	.	.	.	.	.
.	.	16F	-na	.	.	.	.	.	.	.	.
.	.	16e-	see	.	.	.	.	.	.	.	.
.	.	16c	mo-	.	.	.	.	.	.	.	.
.	.	8F	-ti-	.	.	.	.	.	.	.	.
=101	=101	=101	=101	=101	=101	=101	=101	=101	=101	=101	=101
2-VI	G-:maj	8f	-va-	1r	.	1r	.	(A	197.559	.	voice
.	.	8c	-tion,	.	.	.	.	a)	.	.	.
.	.	16r	.	.	.	.	.	.	.	.	.
.	.	16g-	so	.	.	.	.	.	.	.	.
.	.	16g-	come	.	.	.	.	.	.	.	.
.	.	[16g-	on,	.	.	.	.	.	.	.	.
2-VII	A-:maj	16g-]	_	.	.	.	.	.	198.546	.	.
.	.	8e-	now,	.	.	.	.	.	.	.	.
.	.	[16g-	feel	.	.	.	.	.	.	.	.
.	.	16g-]	_	.	.	.	.	.	.	.	.
.	.	16d-	the	.	.	.	.	.	.	.	.
.	.	8e-	vi-	.	.	.	.	.	.	.	.
=102	=102	=102	=102	=102	=102	=102	=102	=102	=102	=102	=102
*>Letter>B	*>Letter>B	*>Letter>B	*>Letter>B	*>Letter>B	*>Letter>B	*>Letter>B	*>Letter>B	*>Letter>B	*>Letter>B	*>Letter>B	*>Letter>B
*>Label>Solo	*>Label>Solo	*>Label>Solo	*>Label>Solo	*>Label>Solo	*>Label>Solo	*>Label>Solo	*>Label>Solo	*>Label>Solo	*>Label>Solo	*>Label>Solo	*>Label>Solo
2-VII	A-:maj	8e-	-bra-	1r	.	1r	.	(A	199.534	newline	piano
.	.	8F	-tion!	.	.	.	.	a)	.	.	.
.	.	4r	.	.	.	.	.	.	.	.	.
2i7	B-:min7	2r	.	.	.	.	.	.	200.522	.	.
=103	=103	=103	=103	=103	=103	=103	=103	=103	=103	=103	=103
2-VI	G-:maj	1r	.	1r	.	1r	.	.	201.511	.	piano
2-VII	A-:maj	.	.	.	.	.	.	.	202.499	.	.
=104	=104	=104	=104	=104	=104	=104	=104	=104	=104	=104	=104
2-VII	A-:maj	1r	.	1r	.	1r	.	.	203.487	.	piano
2i7	B-:min7	.	.	.	.	.	.	.	204.476	.	.
=105	=105	=105	=105	=105	=105	=105	=105	=105	=105	=105	=105
2-VI	G-:maj	1r	.	1r	.	1r	.	.	205.464	.	piano
2-VII	A-:maj	.	.	.	.	.	.	.	206.453	.	.
=106	=106	=106	=106	=106	=106	=106	=106	=106	=106	=106	=106
2-VII	A-:maj	1r	.	1r	.	1r	.	.	207.441	newline	piano
2i7	B-:min7	.	.	.	.	.	.	.	208.425	.	.
=107	=107	=107	=107	=107	=107	=107	=107	=107	=107	=107	=107
2-VI	G-:maj	1r	.	1r	.	1r	.	.	209.409	.	piano
2-VII	A-:maj	.	.	.	.	.	.	.	210.393	.	.
=108	=108	=108	=108	=108	=108	=108	=108	=108	=108	=108	=108
2-VII	A-:maj	1r	.	1r	.	1r	.	.	211.376	.	piano
2i7	B-:min7	.	.	.	.	.	.	.	212.36	.	.
=109	=109	=109	=109	=109	=109	=109	=109	=109	=109	=109	=109
2-VI	G-:maj	1r	.	2r	.	1r	.	.	213.344	.	piano
2-VII	A-:maj	.	.	8r	.	.	.	.	214.328	.	.
.	.	.	.	8a-	It's	.	.	.	.	.	.
.	.	.	.	8b-	such	.	.	.	.	.	.
.	.	.	.	8dd-	a	.	.	.	.	.	.
=110	=110	=110	=110	=110	=110	=110	=110	=110	=110	=110	=110
*>Letter>B	*>Letter>B	*>Letter>B	*>Letter>B	*>Letter>B	*>Letter>B	*>Letter>B	*>Letter>B	*>Letter>B	*>Letter>B	*>Letter>B	*>Letter>B
*>Label>Chorus	*>Label>Chorus	*>Label>Chorus	*>Label>Chorus	*>Label>Chorus	*>Label>Chorus	*>Label>Chorus	*>Label>Chorus	*>Label>Chorus	*>Label>Chorus	*>Label>Chorus	*>Label>Chorus
2-VII	A-:maj	1r	.	8r	.	1r	.	.	215.312	newline	voice
.	.	.	.	8ff	good	.	.	.	.	.	.
.	.	.	.	8r	.	.	.	.	.	.	.
.	.	.	.	8b-	vi-	.	.	.	.	.	.
2id	B-:min/b7	.	.	8b-	-bra-	.	.	(A	216.3	.	.
.	.	.	.	8b-	-tion!	.	.	a)	.	.	.
.	.	.	.	8dd-	_	.	.	.	.	.	.
.	.	.	.	8r	.	.	.	.	.	.	.
=111	=111	=111	=111	=111	=111	=111	=111	=111	=111	=111	=111
2-VI	G-:maj	16g-	Come	2r	.	1r	.	.	217.287	.	voice
.	.	8c	on,	.	.	.	.	.	.	.	.
.	.	16g-	come	.	.	.	.	.	.	.	.
.	.	8c	on,	.	.	.	.	.	.	.	.
.	.	16g-	come	.	.	.	.	.	.	.	.
.	.	[16c	on!	.	.	.	.	.	.	.	.
2-VII	A-:maj	8c]	_	8r	.	.	.	.	218.275	.	.
.	.	8r	.	8a-	It's	.	.	.	.	.	.
.	.	4r	.	8b-	such	.	.	.	.	.	.
.	.	.	.	8dd-	a	.	.	.	.	.	.
=112	=112	=112	=112	=112	=112	=112	=112	=112	=112	=112	=112
2-VII	A-:maj	1r	.	8r	.	1r	.	.	219.263	.	voice
.	.	.	.	[8ee	sweet	.	.	.	.	.	.
.	.	.	.	8ee]	_	.	.	.	.	.	.
.	.	.	.	[8ee-	_	.	.	.	.	.	.
2id	B-:min/b7	.	.	6ee-]	_	.	.	.	220.25	.	.
.	.	.	.	6dd-	sen-	.	.	.	.	.	.
.	.	.	.	6b-	-sa-	.	.	(A	.	.	.
=113	=113	=113	=113	=113	=113	=113	=113	=113	=113	=113	=113
2-VI	G-:maj	2r	.	16b-	-tion!	1r	.	a)	221.238	.	voice
.	.	.	.	16a-	_	.	.	.	.	.	.
.	.	.	.	16b-	_	.	.	.	.	.	.
.	.	.	.	[16dd-	_	.	.	.	.	.	.
.	.	.	.	8dd-]	_	.	.	.	.	.	.
.	.	.	.	8ee-	_	.	.	.	.	.	.
2-VII	A-:maj	8g-	Feel	8r	.	.	.	.	222.226	.	.
.	.	8G-	it,	8a-	It's	.	.	.	.	.	.
.	.	8g-	feel	8b-	such	.	.	.	.	.	.
.	.	8G-	it!	8dd-	a	.	.	.	.	.	.
=114	=114	=114	=114	=114	=114	=114	=114	=114	=114	=114	=114
2-VII	A-:maj	1r	.	8r	.	1r	.	.	223.213	newline	voice
.	.	.	.	8ff	good	.	.	.	.	.	.
.	.	.	.	8r	.	.	.	.	.	.	.
.	.	.	.	8b-	vi-	.	.	.	.	.	.
2id	B-:min/b7	.	.	8b-	-bra-	.	.	.	224.197	.	.
.	.	.	.	8b-	-tion!	.	.	.	.	.	.
.	.	.	.	8dd-	_	.	.	.	.	.	.
.	.	.	.	8r	.	.	.	.	.	.	.
=115	=115	=115	=115	=115	=115	=115	=115	=115	=115	=115	=115
2-VI	G-:maj	1r	.	2r	.	1r	.	.	225.18	.	voice
2-VII	A-:maj	.	.	8r	.	.	.	.	226.164	.	.
.	.	.	.	8a-	It's	.	.	.	.	.	.
.	.	.	.	8b-	such	.	.	.	.	.	.
.	.	.	.	8dd-	a	.	.	.	.	.	.
=116	=116	=116	=116	=116	=116	=116	=116	=116	=116	=116	=116
2-VII	A-:maj	1r	.	8r	.	1r	.	.	227.147	.	voice
.	.	.	.	[8ee	sweet	.	.	.	.	.	.
.	.	.	.	8ee]	_	.	.	.	.	.	.
.	.	.	.	[8ee-	_	.	.	.	.	.	.
2id	B-:min/b7	.	.	6ee-]	_	.	.	.	228.131	.	.
.	.	.	.	6dd-	sen-	.	.	.	.	.	.
.	.	.	.	6b-	-sa-	.	.	.	.	.	.
=117	=117	=117	=117	=117	=117	=117	=117	=117	=117	=117	=117
2-VI	G-:maj	4r	.	16b-	-tion!	1r	.	.	229.114	.	voice
.	.	.	.	16a-	_	.	.	.	.	.	.
.	.	.	.	16b-	_	.	.	.	.	.	.
.	.	.	.	[16dd-	_	.	.	.	.	.	.
.	.	8.r	.	8dd-]	_	.	.	.	.	.	.
.	.	.	.	8ee-	_	.	.	.	.	.	.
.	.	[16g-	Feel	.	.	.	.	.	.	.	.
2-VII	A-:maj	16g-]	_	8r	.	.	.	.	230.098	.	.
.	.	16B-	the	.	.	.	.	.	.	.	.
.	.	8c	vi-	8a-	It's	.	.	.	.	.	.
.	.	8d-	-bra-	8b-	such	.	.	.	.	.	.
.	.	8F	-tion!	8dd-	a	.	.	.	.	.	.
=118	=118	=118	=118	=118	=118	=118	=118	=118	=118	=118	=118
*>Letter>B	*>Letter>B	*>Letter>B	*>Letter>B	*>Letter>B	*>Letter>B	*>Letter>B	*>Letter>B	*>Letter>B	*>Letter>B	*>Letter>B	*>Letter>B
*>Label>Chorus	*>Label>Chorus	*>Label>Chorus	*>Label>Chorus	*>Label>Chorus	*>Label>Chorus	*>Label>Chorus	*>Label>Chorus	*>Label>Chorus	*>Label>Chorus	*>Label>Chorus	*>Label>Chorus
2-VII	A-:maj	1r	.	8r	.	8r	.	.	231.081	newline	voice
.	.	.	.	8ff	good	[8AA-	Bom,	.	.	.	.
.	.	.	.	8r	.	16AA-]	_	.	.	.	.
.	.	.	.	.	.	8.AA-	bom,	.	.	.	.
.	.	.	.	8b-	vi-	.	.	.	.	.	.
2i7	B-:min7	.	.	8b-	-bra-	8.BB-	bom,	.	232.073	.	.
.	.	.	.	8b-	-tion!	.	.	.	.	.	.
.	.	.	.	.	.	[16BB-	bom,	.	.	.	.
.	.	.	.	8dd-	_	16BB-]	_	.	.	.	.
.	.	.	.	.	.	8.BB-	bom,	.	.	.	.
.	.	.	.	8r	.	.	.	.	.	.	.
=119	=119	=119	=119	=119	=119	=119	=119	=119	=119	=119	=119
2-VI	G-:maj	1r	.	2r	.	8r	.	.	233.066	.	voice
.	.	.	.	.	.	[8GG-	bom,	.	.	.	.
.	.	.	.	.	.	16GG-]	_	.	.	.	.
.	.	.	.	.	.	8.GG-	bom,	.	.	.	.
2-VII	A-:maj	.	.	8r	.	8.AA-	bom,	.	234.058	.	.
.	.	.	.	8a-	It's	.	.	.	.	.	.
.	.	.	.	.	.	[16AA-	bom,	.	.	.	.
.	.	.	.	8b-	such	16AA-]	_	.	.	.	.
.	.	.	.	.	.	8.AA-	bom.	.	.	.	.
.	.	.	.	8dd-	a	.	.	.	.	.	.
=120	=120	=120	=120	=120	=120	=120	=120	=120	=120	=120	=120
2-VII	A-:maj	1r	.	8r	.	8r	.	.	235.05	.	voice
.	.	.	.	[8ee	sweet	[8AA-	Bom,	.	.	.	.
.	.	.	.	8ee]	_	16AA-]	_	.	.	.	.
.	.	.	.	.	.	8.AA-	bom,	.	.	.	.
.	.	.	.	[8ee-	_	.	.	.	.	.	.
2i7	B-:min7	.	.	6ee-]	_	8.BB-	bom,	.	236.042	.	.
.	.	.	.	6dd-	sen-	.	.	.	.	.	.
.	.	.	.	.	.	[16BB-	bom,	.	.	.	.
.	.	.	.	.	.	16BB-]	_	.	.	.	.
.	.	.	.	.	.	8.BB-	bom,	.	.	.	.
.	.	.	.	6b-	-sa-	.	.	.	.	.	.
=121	=121	=121	=121	=121	=121	=121	=121	=121	=121	=121	=121
2-VI	G-:maj	1r	.	16b-	-tion!	8r	.	.	237.035	.	voice
.	.	.	.	16a-	_	.	.	.	.	.	.
.	.	.	.	16b-	_	[8GG-	bom,	.	.	.	.
.	.	.	.	[16dd-	_	.	.	.	.	.	.
.	.	.	.	8dd-]	_	16GG-]	_	.	.	.	.
.	.	.	.	.	.	8.GG-	bom,	.	.	.	.
.	.	.	.	8ee-	_	.	.	.	.	.	.
2-VII	A-:maj	.	.	8r	.	8.AA-	bom,	.	238.027	.	.
.	.	.	.	8a-	It's	.	.	.	.	.	.
.	.	.	.	.	.	[16AA-	bom,	.	.	.	.
.	.	.	.	8b-	such	16AA-]	_	.	.	.	.
.	.	.	.	.	.	8.AA-	bom.	.	.	.	.
.	.	.	.	8dd-	a	.	.	.	.	.	.
=122	=122	=122	=122	=122	=122	=122	=122	=122	=122	=122	=122
2-VII	A-:maj	1r	.	8r	.	8r	.	.	239.019	newline	voice
.	.	.	.	8ff	good	[8AA-	Bom,	.	.	.	.
.	.	.	.	8r	.	16AA-]	_	.	.	.	.
.	.	.	.	.	.	8.AA-	bom,	.	.	.	.
.	.	.	.	8b-	vi-	.	.	.	.	.	.
2i7	B-:min7	.	.	8b-	-bra-	8.BB-	bom,	.	240.003	.	.
.	.	.	.	8b-	-tion!	.	.	.	.	.	.
.	.	.	.	.	.	[16BB-	bom,	.	.	.	.
.	.	.	.	8dd-	_	16BB-]	_	.	.	.	.
.	.	.	.	.	.	8.BB-	bom,	.	.	.	.
.	.	.	.	8r	.	.	.	.	.	.	.
=123	=123	=123	=123	=123	=123	=123	=123	=123	=123	=123	=123
2-VI	G-:maj	1r	.	2r	.	8r	.	.	240.986	.	voice
.	.	.	.	.	.	[8GG-	bom,	.	.	.	.
.	.	.	.	.	.	16GG-]	_	.	.	.	.
.	.	.	.	.	.	8.GG-	bom,	.	.	.	.
2-VII	A-:maj	.	.	8r	.	8.AA-	bom,	.	241.97	.	.
.	.	.	.	8a-	It's	.	.	.	.	.	.
.	.	.	.	.	.	[16AA-	bom,	.	.	.	.
.	.	.	.	8b-	such	16AA-]	_	.	.	.	.
.	.	.	.	.	.	8.AA-	bom.	.	.	.	.
.	.	.	.	8dd-	a	.	.	.	.	.	.
=124	=124	=124	=124	=124	=124	=124	=124	=124	=124	=124	=124
2-VII	A-:maj	1r	.	8r	.	8r	.	.	242.953	.	voice
.	.	.	.	[8ee	sweet	[8AA-	Bom,	.	.	.	.
.	.	.	.	8ee]	_	16AA-]	_	.	.	.	.
.	.	.	.	.	.	8.AA-	bom,	.	.	.	.
.	.	.	.	[8ee-	_	.	.	.	.	.	.
2i7	B-:min7	.	.	6ee-]	_	8.BB-	bom,	.	243.937	.	.
.	.	.	.	6dd-	sen-	.	.	.	.	.	.
.	.	.	.	.	.	[16BB-	bom,	.	.	.	.
.	.	.	.	.	.	16BB-]	_	.	.	.	.
.	.	.	.	.	.	8.BB-	bom,	.	.	.	.
.	.	.	.	6b-	-sa-	.	.	.	.	.	.
=125	=125	=125	=125	=125	=125	=125	=125	=125	=125	=125	=125
2-VI	G-:maj	1r	.	16b-	-tion!	8r	.	.	244.92	.	voice
.	.	.	.	16a-	_	.	.	.	.	.	.
.	.	.	.	16b-	_	[8GG-	bom,	.	.	.	.
.	.	.	.	[16dd-	_	.	.	.	.	.	.
.	.	.	.	8dd-]	_	16GG-]	_	.	.	.	.
.	.	.	.	.	.	8.GG-	bom,	.	.	.	.
.	.	.	.	8ee-	_	.	.	.	.	.	.
2-VII	A-:maj	.	.	2r	.	8.AA-	bom,	.	245.903	.	.
.	.	.	.	.	.	[16AA-	bom,	.	.	.	.
.	.	.	.	.	.	16AA-]	_	.	.	.	.
.	.	.	.	.	.	8.AA-	bom.	.	.	.	.
=126	=126	=126	=126	=126	=126	=126	=126	=126	=126	=126	=126
*>Letter>B2	*>Letter>B2	*>Letter>B2	*>Letter>B2	*>Letter>B2	*>Letter>B2	*>Letter>B2	*>Letter>B2	*>Letter>B2	*>Letter>B2	*>Letter>B2	*>Letter>B2
*>Label>Solo	*>Label>Solo	*>Label>Solo	*>Label>Solo	*>Label>Solo	*>Label>Solo	*>Label>Solo	*>Label>Solo	*>Label>Solo	*>Label>Solo	*>Label>Solo	*>Label>Solo
2-VII	A-:maj	1r	.	1r	.	1r	.	.	246.887	newline	piano
2i7	B-:min7	.	.	.	.	.	.	.	247.869	.	.
=127	=127	=127	=127	=127	=127	=127	=127	=127	=127	=127	=127
2-VI	G-:maj	1r	.	1r	.	1r	.	.	248.852	.	piano
2-VII	A-:maj	.	.	.	.	.	.	.	249.834	.	.
=128	=128	=128	=128	=128	=128	=128	=128	=128	=128	=128	=128
2-VII	A-:maj	1r	.	1r	.	1r	.	.	250.816	.	piano
2i7	B-:min7	.	.	.	.	.	.	.	251.799	.	.
=129	=129	=129	=129	=129	=129	=129	=129	=129	=129	=129	=129
2-VI	G-:maj	1r	.	1r	.	1r	.	.	252.781	.	piano
2-VII	A-:maj	.	.	.	.	.	.	.	253.764	.	.
=130	=130	=130	=130	=130	=130	=130	=130	=130	=130	=130	=130
2-VII	A-:maj	1r	.	1r	.	1r	.	.	254.746	newline	piano
2i7	B-:min7	.	.	.	.	.	.	.	255.736	.	.
=131	=131	=131	=131	=131	=131	=131	=131	=131	=131	=131	=131
2-VI	G-:maj	1r	.	1r	.	1r	.	.	256.725	.	piano
2-VII	A-:maj	.	.	.	.	.	.	.	257.715	.	.
=132	=132	=132	=132	=132	=132	=132	=132	=132	=132	=132	=132
2-VII	A-:maj	1r	.	1r	.	1r	.	.	258.704	.	piano
2i7	B-:min7	.	.	.	.	.	.	.	259.694	.	.
=133	=133	=133	=133	=133	=133	=133	=133	=133	=133	=133	=133
2-VI	G-:maj	1r	.	1r	.	1r	.	.	260.683	.	piano
2-VII	A-:maj	.	.	.	.	.	.	.	261.673	.	.
1r;	N	r;	.	r;	.	r;	.	.	262.663	.	r
1r;	N	r;	.	r;	.	r;	.	.	268.841	.	r
1r;	N	r;	.	r;	.	r;	.	.	269.558	.	r
*-	*-	*-	*-	*-	*-	*-	*-	*-	*-	*-	*-
!!!BillboardChartDate: 1991/11/09, 1991/11/09
!!!BillboardPeak: 1, 1
!!!BillboardWeeksOnChart: 19, 19
!!!COC: Marky Mark
!!!ENC: Nathaniel Condit-Schultz
!!!EST: Awating manual error checking and editing.
!!!OTL: Good Vibrations
!!!RDF**harte: Chris Harte's syntax, used by MIREX
!!!RDF**harmony: **recip + pitch class of root + harmonic quality
!!!RDF**leadinstrument: original McGill primary instrumentation annotation
!!!RDF**phrase: newline = linebreak in original McGill transcription
!!!RDF**timestamp: McGill audio timestamp in seconds
!!!RDT: 2017/01/12/
!!!SampleActualRank: 31, 31
!!!SampleID#: 352, 503
!!!SampleTargetRank: 31, 30
!!!MBID: None
